;FLAVOR:Marlin
;TIME:3035
;Filament used: 3.18392m
;Layer height: 0.32
;MINX:11.181
;MINY:11.182
;MINZ:0.32
;MAXX:208.819
;MAXY:208.819
;MAXZ:11.84
;Generated with Cura_SteamEngine 5.4.0
M82 ;absolute extrusion mode
; Ender 3 S1 Start G-code
; M413 S0 ; Disable power loss recovery
G92 E0 ; Reset Extruder

; Prep surfaces before auto home for better accuracy
M140 S60
M104 S200

G28 O ; Home all untrusted axes
G1 Z10.0 F3000 ; Move Z Axis up little to prevent scratching of Heat Bed
G1 X0 Y0

M190 S60
M109 S200

G1 X0.1 Y20 Z0.3 F5000.0 ; Move to start position
G1 X0.1 Y200.0 Z0.3 F1500.0 E15 ; Draw the first line
G1 X0.4 Y200.0 Z0.3 F5000.0 ; Move to side a little
G1 X0.4 Y20 Z0.3 F1500.0 E30 ; Draw the second line
G92 E0 ; Reset Extruder
G1 Z2.0 F3000 ; Move Z Axis up little to prevent scratching of Heat Bed
G1 X5 Y20 Z0.3 F5000.0 ; Move over to prevent blob squish

G92 E0
G92 E0
G1 F2400 E-0.8
;LAYER_COUNT:37
;LAYER:0
M107
M204 S2000
;MESH:Bed Adhesion Test 4.0.stl
G0 F7500 X28.734 Y34.672 Z0.32
M204 S500
;TYPE:WALL-INNER
G1 F2400 E0
G1 F1500 X29.121 Y34.485 E0.02287
G1 X29.491 Y34.292 E0.04508
G1 X29.853 Y34.085 E0.06727
G1 X30.209 Y33.866 E0.08951
G1 X30.548 Y33.641 E0.11117
G1 X30.887 Y33.397 E0.13339
G1 X31.228 Y33.135 E0.15628
G1 X31.545 Y32.875 E0.1781
G1 X31.852 Y32.6 E0.20003
G1 X32.164 Y32.304 E0.22292
G1 X32.458 Y32.005 E0.24523
G1 X32.741 Y31.698 E0.26745
G1 X33.005 Y31.39 E0.28904
G1 X33.271 Y31.054 E0.31185
G1 X33.517 Y30.723 E0.33379
G1 X33.758 Y30.374 E0.35636
G1 X33.983 Y30.023 E0.37855
G1 X34.196 Y29.664 E0.40076
G1 X34.395 Y29.297 E0.42298
G1 X34.578 Y28.934 E0.44461
G1 X34.758 Y28.545 E0.46742
G1 X34.92 Y28.158 E0.48975
G1 X35.069 Y27.768 E0.51197
G1 X35.202 Y27.374 E0.5341
G1 X35.323 Y26.974 E0.55634
G1 X35.428 Y26.571 E0.5785
G1 X35.522 Y26.161 E0.60088
G1 X35.6 Y25.752 E0.62304
G1 X35.664 Y25.343 E0.64507
G1 X35.75 Y24.515 E0.68937
G1 X35.772 Y24.092 E0.71191
G1 X35.779 Y23.674 E0.73416
G1 X35.772 Y23.258 E0.7563
G1 X35.75 Y22.839 E0.77863
G1 X35.704 Y22.293 E0.80779
G1 X35.598 Y21.596 E0.84531
G1 X35.52 Y21.186 E0.86752
G1 X35.426 Y20.78 E0.88969
G1 X35.319 Y20.374 E0.91204
G1 X35.198 Y19.975 E0.93422
G1 X35.065 Y19.579 E0.95646
G1 X34.916 Y19.192 E0.97852
G1 X34.754 Y18.805 E1.00085
G1 X34.578 Y18.425 E1.02314
G1 X34.395 Y18.062 E1.04477
G1 X34.19 Y17.685 E1.06761
G1 X33.977 Y17.326 E1.08982
G1 X33.752 Y16.975 E1.11201
G1 X33.514 Y16.632 E1.13422
G1 X33.265 Y16.296 E1.15648
G1 X33.005 Y15.969 E1.17871
G1 X32.741 Y15.661 E1.2003
G1 X32.458 Y15.354 E1.22252
G1 X32.156 Y15.048 E1.2454
G1 X31.852 Y14.759 E1.26772
G1 X31.54 Y14.48 E1.28999
G1 X31.228 Y14.224 E1.31147
G1 X30.887 Y13.962 E1.33436
G1 X30.548 Y13.718 E1.35658
G1 X30.209 Y13.493 E1.37823
G1 X29.844 Y13.268 E1.40105
G1 X29.491 Y13.067 E1.42267
G1 X29.121 Y12.874 E1.44488
G1 X28.734 Y12.687 E1.46775
G1 X28.352 Y12.519 E1.48996
G1 X27.974 Y12.368 E1.51162
G1 X27.571 Y12.223 E1.53441
G1 X27.186 Y12.099 E1.55594
G1 X26.366 Y11.881 E1.60109
G1 X25.74 Y11.75 E1.63512
G1 X25.145 Y11.668 E1.66709
G1 X24.73 Y11.626 E1.68928
G1 X24.3 Y11.597 E1.71222
G1 X23.882 Y11.582 E1.73448
G1 X23.478 Y11.582 E1.75598
G1 X23.06 Y11.597 E1.77824
G1 X22.63 Y11.626 E1.80117
G1 X22.215 Y11.668 E1.82337
G1 X21.62 Y11.75 E1.85533
G1 X20.994 Y11.881 E1.88937
G1 X20.588 Y11.982 E1.91163
G1 X20.176 Y12.099 E1.93442
G1 X19.777 Y12.227 E1.95672
G1 X19.386 Y12.367 E1.97882
G1 X19.008 Y12.519 E2.0005
G1 X18.626 Y12.687 E2.02271
G1 X18.239 Y12.874 E2.04559
G1 X17.869 Y13.067 E2.06779
G1 X17.507 Y13.274 E2.08998
G1 X17.151 Y13.493 E2.11223
G1 X16.812 Y13.718 E2.13388
G1 X16.473 Y13.962 E2.15611
G1 X16.132 Y14.224 E2.17899
G1 X15.815 Y14.484 E2.20081
G1 X15.508 Y14.759 E2.22274
G1 X15.196 Y15.055 E2.24563
G1 X14.902 Y15.354 E2.26794
G1 X14.619 Y15.661 E2.29016
G1 X14.355 Y15.969 E2.31175
G1 X14.089 Y16.305 E2.33456
G1 X13.843 Y16.636 E2.3565
G1 X13.602 Y16.985 E2.37907
G1 X13.377 Y17.336 E2.40126
G1 X13.164 Y17.695 E2.42348
G1 X12.965 Y18.062 E2.44569
G1 X12.782 Y18.425 E2.46733
G1 X12.602 Y18.814 E2.49014
G1 X12.44 Y19.201 E2.51246
G1 X12.291 Y19.591 E2.53468
G1 X12.158 Y19.985 E2.55681
G1 X12.037 Y20.385 E2.57905
G1 X11.932 Y20.788 E2.60121
G1 X11.838 Y21.198 E2.6236
G1 X11.76 Y21.607 E2.64575
G1 X11.696 Y22.016 E2.66778
G1 X11.61 Y22.844 E2.71208
G1 X11.588 Y23.267 E2.73462
G1 X11.581 Y23.684 E2.75682
G1 X11.588 Y24.092 E2.77853
G1 X11.61 Y24.521 E2.80139
G1 X11.656 Y25.066 E2.8305
G1 X11.76 Y25.753 E2.86748
G1 X11.838 Y26.161 E2.88958
G1 X11.932 Y26.571 E2.91197
G1 X12.037 Y26.974 E2.93413
G1 X12.158 Y27.374 E2.95637
G1 X12.291 Y27.768 E2.9785
G1 X12.44 Y28.158 E3.00071
G1 X12.602 Y28.545 E3.02304
G1 X12.782 Y28.934 E3.04585
G1 X12.965 Y29.297 E3.06748
G1 X13.164 Y29.664 E3.0897
G1 X13.377 Y30.023 E3.11191
G1 X13.602 Y30.374 E3.1341
G1 X13.843 Y30.723 E3.15667
G1 X14.089 Y31.054 E3.17862
G1 X14.355 Y31.39 E3.20142
G1 X14.619 Y31.698 E3.22301
G1 X14.902 Y32.005 E3.24523
G1 X15.196 Y32.304 E3.26755
G1 X15.508 Y32.6 E3.29043
G1 X15.815 Y32.875 E3.31237
G1 X16.132 Y33.135 E3.33418
G1 X16.473 Y33.397 E3.35707
G1 X16.812 Y33.641 E3.3793
G1 X17.151 Y33.866 E3.40095
G1 X17.507 Y34.085 E3.42319
G1 X17.869 Y34.292 E3.44538
G1 X18.239 Y34.485 E3.46759
G1 X18.626 Y34.672 E3.49046
G1 X19.008 Y34.84 E3.51267
G1 X19.386 Y34.992 E3.53435
G1 X19.777 Y35.132 E3.55645
G1 X20.175 Y35.26 E3.5787
G1 X20.995 Y35.478 E3.62386
G1 X21.62 Y35.609 E3.65784
G1 X22.215 Y35.691 E3.6898
G1 X22.63 Y35.733 E3.712
G1 X23.06 Y35.762 E3.73493
G1 X23.478 Y35.778 E3.75719
G1 X23.882 Y35.778 E3.77869
G1 X24.3 Y35.762 E3.80095
G1 X24.73 Y35.733 E3.82389
G1 X25.145 Y35.691 E3.84609
G1 X25.74 Y35.609 E3.87805
G1 X26.365 Y35.478 E3.91203
G1 X27.186 Y35.26 E3.95724
G1 X27.584 Y35.132 E3.97949
G1 X27.974 Y34.992 E4.00154
G1 X28.352 Y34.84 E4.02322
G1 X28.734 Y34.672 E4.04543
M204 S2000
G0 F7500 X28.902 Y35.035
M204 S500
;TYPE:WALL-OUTER
G1 F1500 X29.301 Y34.843 E4.06899
G1 X29.683 Y34.643 E4.09194
G1 X30.057 Y34.429 E4.11487
G1 X30.425 Y34.203 E4.13785
G1 X30.776 Y33.97 E4.16027
G1 X31.126 Y33.718 E4.18322
G1 X31.477 Y33.448 E4.20678
G1 X31.805 Y33.179 E4.22936
G1 X32.123 Y32.894 E4.25208
G1 X32.444 Y32.589 E4.27565
G1 X32.748 Y32.281 E4.29868
G1 X33.04 Y31.964 E4.32161
G1 X33.313 Y31.644 E4.344
G1 X33.589 Y31.298 E4.36755
G1 X33.842 Y30.956 E4.39019
G1 X34.091 Y30.596 E4.41348
G1 X34.323 Y30.233 E4.43641
G1 X34.544 Y29.862 E4.45939
G1 X34.749 Y29.483 E4.48232
G1 X34.938 Y29.108 E4.50467
G1 X35.124 Y28.706 E4.52824
G1 X35.292 Y28.306 E4.55133
G1 X35.445 Y27.903 E4.57427
G1 X35.583 Y27.496 E4.59714
G1 X35.708 Y27.082 E4.62015
G1 X35.914 Y26.243 E4.66612
G1 X35.994 Y25.82 E4.68903
G1 X36.061 Y25.395 E4.71193
G1 X36.149 Y24.546 E4.75735
G1 X36.172 Y24.106 E4.7808
G1 X36.179 Y23.674 E4.80379
G1 X36.172 Y23.244 E4.82668
G1 X36.149 Y22.812 E4.8497
G1 X36.102 Y22.246 E4.87992
G1 X35.992 Y21.528 E4.91858
G1 X35.912 Y21.104 E4.94154
G1 X35.704 Y20.265 E4.98754
G1 X35.579 Y19.853 E5.01045
G1 X35.441 Y19.444 E5.03342
G1 X35.288 Y19.043 E5.05626
G1 X35.12 Y18.643 E5.07935
G1 X34.938 Y18.251 E5.10235
G1 X34.749 Y17.876 E5.1247
G1 X34.538 Y17.487 E5.14825
G1 X34.317 Y17.116 E5.17123
G1 X34.085 Y16.753 E5.19416
G1 X33.839 Y16.399 E5.2171
G1 X33.582 Y16.052 E5.24008
G1 X33.313 Y15.715 E5.26302
G1 X33.04 Y15.395 E5.28541
G1 X32.748 Y15.078 E5.30834
G1 X32.436 Y14.762 E5.33197
G1 X32.123 Y14.465 E5.35494
G1 X31.8 Y14.176 E5.378
G1 X31.477 Y13.911 E5.40023
G1 X31.126 Y13.641 E5.4238
G1 X30.776 Y13.389 E5.44675
G1 X30.425 Y13.156 E5.46917
G1 X30.048 Y12.924 E5.49273
G1 X29.683 Y12.716 E5.51509
G1 X29.301 Y12.516 E5.53803
G1 X28.902 Y12.324 E5.5616
G1 X28.507 Y12.15 E5.58456
G1 X28.116 Y11.994 E5.60697
G1 X27.7 Y11.844 E5.6305
G1 X27.301 Y11.716 E5.6528
G1 X26.874 Y11.596 E5.6764
G1 X26.456 Y11.491 E5.69934
G1 X25.808 Y11.356 E5.73456
G1 X25.192 Y11.271 E5.76765
G1 X24.764 Y11.228 E5.79055
G1 X24.321 Y11.197 E5.81418
G1 X23.889 Y11.182 E5.83718
G1 X23.471 Y11.182 E5.85943
G1 X23.039 Y11.197 E5.88243
G1 X22.596 Y11.228 E5.90606
G1 X22.168 Y11.271 E5.92895
G1 X21.552 Y11.356 E5.96204
G1 X20.904 Y11.491 E5.99727
G1 X20.485 Y11.596 E6.02026
G1 X20.06 Y11.716 E6.04376
G1 X19.648 Y11.848 E6.06678
G1 X19.244 Y11.993 E6.08962
G1 X18.853 Y12.15 E6.11204
G1 X18.458 Y12.324 E6.13501
G1 X18.059 Y12.516 E6.15858
G1 X17.677 Y12.716 E6.18152
G1 X17.303 Y12.93 E6.20445
G1 X16.935 Y13.156 E6.22744
G1 X16.584 Y13.389 E6.24986
G1 X16.234 Y13.641 E6.27281
G1 X15.883 Y13.911 E6.29637
G1 X15.555 Y14.18 E6.31895
G1 X15.237 Y14.465 E6.34167
G1 X14.916 Y14.77 E6.36524
G1 X14.612 Y15.078 E6.38827
G1 X14.32 Y15.395 E6.4112
G1 X14.047 Y15.715 E6.43359
G1 X13.771 Y16.061 E6.45714
G1 X13.518 Y16.403 E6.47978
G1 X13.269 Y16.763 E6.50307
G1 X13.037 Y17.126 E6.526
G1 X12.816 Y17.497 E6.54898
G1 X12.611 Y17.876 E6.57191
G1 X12.422 Y18.251 E6.59426
G1 X12.236 Y18.653 E6.61783
G1 X12.068 Y19.053 E6.64092
G1 X11.915 Y19.456 E6.66386
G1 X11.777 Y19.863 E6.68673
G1 X11.652 Y20.277 E6.70974
G1 X11.446 Y21.116 E6.75571
G1 X11.366 Y21.539 E6.77862
G1 X11.299 Y21.964 E6.80152
G1 X11.211 Y22.813 E6.84694
G1 X11.188 Y23.253 E6.87039
G1 X11.181 Y23.684 E6.89333
G1 X11.188 Y24.106 E6.91579
G1 X11.211 Y24.548 E6.93934
G1 X11.258 Y25.113 E6.96951
G1 X11.366 Y25.821 E7.00763
G1 X11.446 Y26.243 E7.03048
G1 X11.652 Y27.082 E7.07646
G1 X11.777 Y27.496 E7.09947
G1 X11.915 Y27.903 E7.12234
G1 X12.068 Y28.306 E7.14528
G1 X12.236 Y28.706 E7.16837
G1 X12.422 Y29.108 E7.19194
G1 X12.611 Y29.483 E7.21429
G1 X12.816 Y29.862 E7.23722
G1 X13.037 Y30.233 E7.2602
G1 X13.269 Y30.596 E7.28313
G1 X13.518 Y30.956 E7.30642
G1 X13.771 Y31.298 E7.32906
G1 X14.047 Y31.644 E7.35261
G1 X14.32 Y31.964 E7.375
G1 X14.612 Y32.281 E7.39793
G1 X14.916 Y32.589 E7.42096
G1 X15.237 Y32.894 E7.44452
G1 X15.555 Y33.179 E7.46725
G1 X15.883 Y33.448 E7.48982
G1 X16.234 Y33.718 E7.51339
G1 X16.584 Y33.97 E7.53634
G1 X16.935 Y34.203 E7.55876
G1 X17.303 Y34.429 E7.58174
G1 X17.677 Y34.643 E7.60467
G1 X18.059 Y34.843 E7.62762
G1 X18.458 Y35.035 E7.65118
G1 X18.853 Y35.209 E7.67415
G1 X19.244 Y35.366 E7.69657
G1 X19.648 Y35.511 E7.71942
G1 X20.06 Y35.643 E7.74244
G1 X20.486 Y35.763 E7.76599
G1 X20.905 Y35.868 E7.78898
G1 X21.552 Y36.003 E7.82415
G1 X22.168 Y36.088 E7.85724
G1 X22.596 Y36.131 E7.88013
G1 X23.039 Y36.162 E7.90377
G1 X23.471 Y36.178 E7.92677
G1 X23.889 Y36.178 E7.94902
G1 X24.321 Y36.162 E7.97202
G1 X24.764 Y36.131 E7.99565
G1 X25.192 Y36.088 E8.01855
G1 X25.808 Y36.003 E8.05164
G1 X26.455 Y35.868 E8.08681
G1 X26.874 Y35.763 E8.1098
G1 X27.301 Y35.643 E8.1334
G1 X27.713 Y35.511 E8.15642
G1 X28.116 Y35.366 E8.17922
G1 X28.507 Y35.209 E8.20164
G1 X28.902 Y35.035 E8.22461
M204 S2000
G0 F7500 X28.698 Y34.578
G0 X29.432 Y34.209
G0 X29.315 Y33.977
M204 S500
;TYPE:SKIN
G1 F1500 X28.963 Y34.16 E8.24572
G1 X28.578 Y34.346 E8.26847
G1 X28.206 Y34.51 E8.29011
G1 X27.851 Y34.653 E8.31048
G1 X27.47 Y34.791 E8.33204
G1 X27.087 Y34.912 E8.35341
G1 X26.673 Y35.029 E8.37631
G1 X26.29 Y35.125 E8.39732
G1 X25.686 Y35.253 E8.43018
G1 X25.108 Y35.333 E8.46123
G1 X24.648 Y35.38 E8.48584
G1 X23.868 Y35.418 E8.52739
G1 X23.492 Y35.418 E8.5474
G1 X22.713 Y35.38 E8.58891
G1 X22.252 Y35.333 E8.61357
G1 X21.674 Y35.253 E8.64462
G1 X21.07 Y35.125 E8.67748
G1 X20.687 Y35.029 E8.69849
G1 X20.274 Y34.912 E8.72133
G1 X19.891 Y34.791 E8.74271
G1 X19.51 Y34.653 E8.76427
G1 X19.154 Y34.51 E8.78469
G1 X18.782 Y34.346 E8.80632
G1 X18.397 Y34.161 E8.82905
G1 X18.045 Y33.977 E8.85019
G1 X17.339 Y33.558 E8.89388
G1 X17.02 Y33.347 E8.91423
G1 X16.693 Y33.111 E8.93569
G1 X16.352 Y32.848 E8.95861
G1 X16.044 Y32.595 E8.97982
G1 X15.454 Y32.051 E9.02253
G1 X15.16 Y31.753 E9.04481
G1 X14.894 Y31.464 E9.06571
G1 X14.631 Y31.155 E9.0873
G1 X14.371 Y30.829 E9.10949
G1 X14.136 Y30.513 E9.13045
G1 X13.9 Y30.17 E9.15261
G1 X13.474 Y29.481 E9.19571
G1 X13.11 Y28.783 E9.23761
G1 X12.93 Y28.395 E9.26037
G1 X12.626 Y27.638 E9.30378
G1 X12.424 Y27.036 E9.33757
G1 X12.187 Y26.078 E9.39009
G1 X12.115 Y25.687 E9.41125
G1 X12.011 Y25.014 E9.44749
G1 X11.96 Y24.326 E9.4842
G1 X11.942 Y23.688 E9.51816
G1 X11.948 Y23.285 E9.53961
G1 X11.97 Y22.863 E9.5621
G1 X12.052 Y22.074 E9.60431
G1 X12.188 Y21.279 E9.64724
G1 X12.383 Y20.49 E9.69049
G1 X12.501 Y20.095 E9.71243
G1 X12.628 Y19.719 E9.73355
G1 X12.773 Y19.34 E9.75514
G1 X12.93 Y18.965 E9.77677
G1 X13.11 Y18.576 E9.79958
G1 X13.474 Y17.878 E9.84148
G1 X13.9 Y17.189 E9.88459
G1 X14.136 Y16.846 E9.90674
G1 X14.371 Y16.53 E9.9277
G1 X14.631 Y16.204 E9.94989
G1 X14.894 Y15.895 E9.97148
G1 X15.16 Y15.606 E9.99238
G1 X15.454 Y15.308 E10.01466
G1 X16.044 Y14.764 E10.05737
G1 X16.352 Y14.511 E10.07858
G1 X16.693 Y14.248 E10.1015
G1 X17.02 Y14.012 E10.12296
G1 X17.339 Y13.801 E10.14331
G1 X18.045 Y13.382 E10.187
G1 X18.397 Y13.199 E10.20811
G1 X18.782 Y13.013 E10.23087
G1 X19.154 Y12.849 E10.2525
G1 X19.51 Y12.706 E10.27292
G1 X19.891 Y12.567 E10.2945
G1 X20.687 Y12.329 E10.33871
G1 X21.068 Y12.234 E10.35961
G1 X21.674 Y12.106 E10.39257
G1 X22.249 Y12.026 E10.42346
G1 X23.086 Y11.957 E10.46816
G1 X23.491 Y11.942 E10.48972
G1 X23.869 Y11.942 E10.50984
G1 X24.274 Y11.957 E10.53141
G1 X25.111 Y12.026 E10.5761
G1 X25.949 Y12.141 E10.62111
G1 X27.075 Y12.443 E10.68315
G1 X27.447 Y12.56 E10.70391
G1 X28.206 Y12.85 E10.74714
G1 X28.577 Y13.013 E10.76871
G1 X28.963 Y13.198 E10.79149
G1 X29.317 Y13.383 E10.81274
G1 X30.011 Y13.795 E10.85569
G1 X30.35 Y14.019 E10.87732
G1 X30.667 Y14.248 E10.89813
G1 X31 Y14.505 E10.92051
G1 X31.311 Y14.761 E10.94195
G1 X31.899 Y15.3 E10.9844
G1 X32.197 Y15.603 E11.00701
G1 X32.471 Y15.9 E11.02852
G1 X32.723 Y16.196 E11.0492
G1 X32.983 Y16.522 E11.07139
G1 X33.448 Y17.17 E11.11384
G1 X33.874 Y17.858 E11.1569
G1 X34.075 Y18.23 E11.1794
G1 X34.368 Y18.814 E11.21417
G1 X34.58 Y19.321 E11.24342
G1 X34.726 Y19.7 E11.26503
G1 X34.971 Y20.465 E11.30778
G1 X35.167 Y21.252 E11.35094
G1 X35.241 Y21.65 E11.37248
G1 X35.349 Y22.346 E11.40996
G1 X35.405 Y23.035 E11.44675
G1 X35.418 Y23.669 E11.4805
G1 X35.412 Y24.074 E11.50205
G1 X35.39 Y24.496 E11.52454
G1 X35.308 Y25.285 E11.56675
G1 X35.172 Y26.08 E11.60967
G1 X34.978 Y26.869 E11.65291
G1 X34.857 Y27.269 E11.67515
G1 X34.732 Y27.639 E11.69594
G1 X34.587 Y28.019 E11.71758
G1 X34.43 Y28.394 E11.73921
G1 X34.25 Y28.783 E11.76202
G1 X33.886 Y29.481 E11.80392
G1 X33.46 Y30.17 E11.84702
G1 X33.224 Y30.513 E11.86918
G1 X32.989 Y30.829 E11.89014
G1 X32.729 Y31.155 E11.91233
G1 X32.466 Y31.464 E11.93392
G1 X32.2 Y31.753 E11.95482
G1 X31.906 Y32.051 E11.9771
G1 X31.316 Y32.595 E12.01981
G1 X31.008 Y32.848 E12.04102
G1 X30.667 Y33.111 E12.06394
G1 X30.34 Y33.347 E12.0854
G1 X30.021 Y33.558 E12.10575
G1 X29.315 Y33.977 E12.14944
M204 S2000
G0 F7500 X29.432 Y34.209
G0 X27.139 Y35.106
G0 X25.712 Y35.451
G0 X23.878 Y35.617
G0 X22.235 Y35.531
G0 X20.63 Y35.221
G0 X19.368 Y34.793
G0 X17.457 Y33.937
G0 X17.701 Y33.54
M204 S500
G1 F1500 X13.818 Y29.658 E12.44163
M204 S2000
G0 F7500 X13.418 Y29.895
G0 X12.758 Y28.643
G0 X13.176 Y28.449
M204 S500
G1 F1500 X18.908 Y34.182 E12.87306
M204 S2000
G0 F7500 X18.721 Y34.603
G0 X19.702 Y34.999
G0 X19.857 Y34.565
M204 S500
G1 F1500 X12.79 Y27.497 E13.40495
M204 S2000
G0 F7500 X12.543 Y26.685
M204 S500
G1 F1500 X20.673 Y34.815 E14.01681
M204 S2000
G0 F7500 X21.416 Y34.992
M204 S500
G1 F1500 X12.365 Y25.941 E14.69798
M204 S2000
G0 F7500 X12.252 Y25.262
M204 S500
G1 F1500 X22.097 Y35.108 E15.43894
M204 S2000
G0 F7500 X22.734 Y35.179
M204 S500
G1 F1500 X12.182 Y24.627 E16.23307
M204 S2000
G0 F7500 X12.151 Y24.031
M204 S500
G1 F1500 X23.328 Y35.208 E17.07424
