;FLAVOR:Marlin
;TIME:3733
;Filament used: 2.32569m
;Layer height: 0.2
;MINX:14.272
;MINY:15.141
;MINZ:0.2
;MAXX:204.858
;MAXY:204.856
;MAXZ:12
;Generated with Cura_SteamEngine 5.4.0
M82 ;absolute extrusion mode
; Ender 3 S1 Start G-code
; M413 S0 ; Disable power loss recovery
G92 E0 ; Reset Extruder

; Prep surfaces before auto home for better accuracy
M140 S60
M104 S205.0

G28 O ; Home all untrusted axes
G1 Z10.0 F3000 ; Move Z Axis up little to prevent scratching of Heat Bed
G1 X0 Y0

M190 S60
M109 S205.0

G1 X0.1 Y20 Z0.3 F5000.0 ; Move to start position
G1 X0.1 Y200.0 Z0.3 F1500.0 E15 ; Draw the first line
G1 X0.4 Y200.0 Z0.3 F5000.0 ; Move to side a little
G1 X0.4 Y20 Z0.3 F1500.0 E30 ; Draw the second line
G92 E0 ; Reset Extruder
G1 Z2.0 F3000 ; Move Z Axis up little to prevent scratching of Heat Bed
G1 X5 Y20 Z0.3 F5000.0 ; Move over to prevent blob squish

G92 E0
G92 E0
G1 F2400 E-0.8
;LAYER_COUNT:60
;LAYER:0
M107
M204 S2000
M205 X12 Y12
;MESH:Bed Adhesion Test v8.stl
G0 F7500 X23.888 Y31.795 Z0.2
M204 S500
;TYPE:WALL-INNER
G1 F2400 E0
G1 F1500 X24.476 Y31.76 E0.01954
G1 X25.039 Y31.683 E0.0384
G1 X25.59 Y31.571 E0.05705
G1 X26.149 Y31.415 E0.0763
G1 X26.409 Y31.327 E0.08541
G1 X26.934 Y31.117 E0.10417
G1 X27.468 Y30.861 E0.12382
G1 X27.712 Y30.727 E0.13305
G1 X28.194 Y30.427 E0.15189
G1 X28.707 Y30.055 E0.17291
G1 X28.921 Y29.882 E0.18204
G1 X29.333 Y29.509 E0.20048
G1 X29.541 Y29.299 E0.21029
G1 X29.923 Y28.87 E0.22934
G1 X30.272 Y28.419 E0.24826
G1 X30.594 Y27.937 E0.2675
G1 X30.751 Y27.672 E0.27771
G1 X30.882 Y27.428 E0.2869
G1 X31.13 Y26.907 E0.30605
G1 X31.344 Y26.362 E0.32547
G1 X31.506 Y25.839 E0.34364
G1 X31.636 Y25.296 E0.36216
G1 X31.735 Y24.701 E0.38217
G1 X31.786 Y24.151 E0.4005
G1 X31.798 Y23.548 E0.42051
G1 X31.767 Y22.961 E0.44001
G1 X31.694 Y22.377 E0.45954
G1 X31.582 Y21.809 E0.47874
G1 X31.513 Y21.542 E0.48789
G1 X31.339 Y20.982 E0.50735
G1 X31.139 Y20.471 E0.52555
G1 X31.031 Y20.232 E0.53426
G1 X30.768 Y19.718 E0.55341
G1 X30.439 Y19.181 E0.5743
G1 X30.113 Y18.725 E0.5929
G1 X29.929 Y18.495 E0.60267
G1 X29.541 Y18.059 E0.62204
G1 X29.135 Y17.665 E0.64081
G1 X28.717 Y17.312 E0.65896
G1 X28.223 Y16.95 E0.67928
G1 X27.999 Y16.805 E0.68813
G1 X27.474 Y16.502 E0.70824
G1 X27.243 Y16.385 E0.71683
G1 X26.692 Y16.14 E0.73684
G1 X26.172 Y15.953 E0.75517
G1 X25.593 Y15.789 E0.77514
G1 X25.339 Y15.732 E0.78377
G1 X24.775 Y15.635 E0.80276
G1 X24.219 Y15.578 E0.8213
G1 X23.64 Y15.561 E0.84052
G1 X23.048 Y15.585 E0.86018
G1 X22.756 Y15.612 E0.86991
G1 X22.171 Y15.702 E0.88954
G1 X21.906 Y15.757 E0.89852
G1 X21.326 Y15.91 E0.91842
G1 X20.8 Y16.088 E0.93685
G1 X20.258 Y16.318 E0.95638
G1 X19.737 Y16.582 E0.97576
G1 X19.263 Y16.867 E0.99411
G1 X18.772 Y17.212 E1.01402
G1 X18.347 Y17.558 E1.0322
G1 X18.154 Y17.733 E1.04084
G1 X17.727 Y18.161 E1.0609
G1 X17.331 Y18.62 E1.08101
G1 X17.001 Y19.063 E1.09934
G1 X16.691 Y19.548 E1.11844
G1 X16.419 Y20.048 E1.13732
G1 X16.179 Y20.575 E1.15653
G1 X15.984 Y21.092 E1.17487
G1 X15.814 Y21.667 E1.19476
G1 X15.686 Y22.258 E1.21482
G1 X15.609 Y22.805 E1.23315
G1 X15.567 Y23.374 E1.25208
G1 X15.567 Y23.955 E1.27135
G1 X15.609 Y24.555 E1.29131
G1 X15.681 Y25.074 E1.30869
G1 X15.807 Y25.666 E1.32877
G1 X15.969 Y26.219 E1.34789
G1 X16.178 Y26.782 E1.36781
G1 X16.405 Y27.284 E1.38609
G1 X16.687 Y27.803 E1.40569
G1 X16.99 Y28.278 E1.42438
G1 X17.323 Y28.728 E1.44295
G1 X17.715 Y29.189 E1.46303
G1 X18.098 Y29.574 E1.48105
G1 X18.324 Y29.781 E1.49122
G1 X18.772 Y30.148 E1.51043
G1 X19.22 Y30.463 E1.5286
G1 X19.725 Y30.77 E1.54821
G1 X20.225 Y31.026 E1.56684
G1 X20.77 Y31.259 E1.58651
G1 X21.32 Y31.448 E1.6058
G1 X21.86 Y31.592 E1.62434
G1 X22.426 Y31.7 E1.64346
G1 X23.035 Y31.773 E1.66381
G1 X23.324 Y31.791 E1.67342
G1 X23.888 Y31.795 E1.69213
M204 S2000
G0 F7500 X23.899 Y32.215
M204 S500
;TYPE:WALL-OUTER
G1 F1500 X24.517 Y32.178 E1.71267
G1 X25.109 Y32.097 E1.73249
G1 X25.688 Y31.979 E1.7521
G1 X26.273 Y31.817 E1.77224
G1 X26.555 Y31.721 E1.78212
G1 X27.103 Y31.502 E1.8017
G1 X27.66 Y31.235 E1.82219
G1 X27.924 Y31.089 E1.8322
G1 X28.428 Y30.776 E1.85188
G1 X28.963 Y30.389 E1.87379
G1 X29.195 Y30.201 E1.8837
G1 X29.623 Y29.813 E1.90286
G1 X29.847 Y29.587 E1.91342
G1 X30.247 Y29.138 E1.93337
G1 X30.613 Y28.665 E1.95321
G1 X30.95 Y28.161 E1.97333
G1 X31.117 Y27.878 E1.98423
G1 X31.257 Y27.618 E1.99403
G1 X31.516 Y27.074 E2.01402
G1 X31.74 Y26.501 E2.03443
G1 X31.91 Y25.955 E2.0534
G1 X31.988 Y25.656 E2.06365
G1 X32.049 Y25.375 E2.07319
G1 X32.152 Y24.755 E2.09404
G1 X32.206 Y24.175 E2.11337
G1 X32.218 Y23.541 E2.13441
G1 X32.186 Y22.924 E2.15491
G1 X32.109 Y22.31 E2.17544
G1 X31.992 Y21.716 E2.19552
G1 X31.917 Y21.427 E2.20543
G1 X31.735 Y20.843 E2.22572
G1 X31.526 Y20.308 E2.24478
G1 X31.409 Y20.05 E2.25418
G1 X31.134 Y19.512 E2.27422
G1 X30.789 Y18.949 E2.29613
G1 X30.448 Y18.471 E2.31561
G1 X30.25 Y18.224 E2.32611
G1 X29.845 Y17.769 E2.34632
G1 X29.417 Y17.353 E2.36612
G1 X28.977 Y16.982 E2.38522
G1 X28.461 Y16.604 E2.40644
G1 X28.218 Y16.447 E2.41604
G1 X27.674 Y16.132 E2.43689
G1 X27.423 Y16.005 E2.44623
G1 X26.849 Y15.75 E2.46706
G1 X26.301 Y15.553 E2.48638
G1 X25.696 Y15.381 E2.50725
G1 X25.421 Y15.32 E2.5166
G1 X24.832 Y15.219 E2.53642
G1 X24.247 Y15.158 E2.55594
G1 X23.638 Y15.141 E2.57615
G1 X23.02 Y15.166 E2.59667
G1 X22.705 Y15.195 E2.60716
G1 X22.096 Y15.288 E2.6276
G1 X21.81 Y15.348 E2.6373
G1 X21.205 Y15.508 E2.65806
G1 X20.65 Y15.695 E2.67749
G1 X20.081 Y15.937 E2.69801
G1 X19.533 Y16.214 E2.71838
G1 X19.034 Y16.515 E2.73771
G1 X18.518 Y16.877 E2.75862
G1 X18.073 Y17.24 E2.77768
G1 X17.864 Y17.429 E2.78702
G1 X17.419 Y17.875 E2.80793
G1 X17.003 Y18.357 E2.82905
G1 X16.655 Y18.824 E2.84837
G1 X16.329 Y19.334 E2.86846
G1 X16.043 Y19.86 E2.88832
G1 X15.791 Y20.413 E2.90848
G1 X15.586 Y20.958 E2.9278
G1 X15.407 Y21.563 E2.94873
G1 X15.272 Y22.184 E2.96982
G1 X15.191 Y22.761 E2.98915
G1 X15.147 Y23.358 E3.00901
G1 X15.147 Y23.969 E3.02928
G1 X15.191 Y24.599 E3.05023
G1 X15.267 Y25.146 E3.06855
G1 X15.399 Y25.768 E3.08965
G1 X15.57 Y26.351 E3.10981
G1 X15.789 Y26.942 E3.13072
G1 X16.029 Y27.471 E3.14999
G1 X16.325 Y28.017 E3.17059
G1 X16.644 Y28.516 E3.19024
G1 X16.994 Y28.99 E3.20979
G1 X17.406 Y29.473 E3.23085
G1 X17.807 Y29.877 E3.24974
G1 X18.049 Y30.099 E3.26063
G1 X18.518 Y30.482 E3.28072
G1 X18.99 Y30.815 E3.29989
G1 X19.52 Y31.137 E3.32046
G1 X20.047 Y31.406 E3.34009
G1 X20.619 Y31.651 E3.36074
G1 X21.198 Y31.85 E3.38105
G1 X21.767 Y32.002 E3.40059
G1 X22.362 Y32.115 E3.42068
G1 X22.997 Y32.191 E3.4419
G1 X23.309 Y32.211 E3.45227
G1 X23.899 Y32.215 E3.47185
M204 S2000
G0 F7500 X23.871 Y31.5
M204 S500
;TYPE:SKIN
G1 F1500 X23.344 Y31.497 E3.48933
G1 X23.06 Y31.479 E3.49877
G1 X22.463 Y31.407 E3.51872
G1 X21.915 Y31.303 E3.53723
G1 X21.418 Y31.17 E3.5543
G1 X20.882 Y30.986 E3.5731
G1 X20.341 Y30.754 E3.59263
G1 X19.871 Y30.515 E3.61012
G1 X19.373 Y30.21 E3.6295
G1 X18.961 Y29.919 E3.64623
G1 X18.512 Y29.551 E3.66549
G1 X18.297 Y29.357 E3.6751
G1 X17.941 Y28.998 E3.69187
G1 X17.547 Y28.536 E3.71202
G1 X17.227 Y28.102 E3.72991
G1 X16.942 Y27.656 E3.74747
G1 X16.663 Y27.142 E3.76687
G1 X16.455 Y26.681 E3.78365
G1 X16.246 Y26.121 E3.80348
G1 X16.089 Y25.581 E3.82214
G1 X15.969 Y25.012 E3.84143
G1 X15.905 Y24.534 E3.85743
G1 X15.862 Y23.931 E3.87749
G1 X15.862 Y23.397 E3.89521
G1 X15.904 Y22.827 E3.91417
G1 X15.974 Y22.322 E3.93108
G1 X16.096 Y21.752 E3.95042
G1 X16.267 Y21.175 E3.97039
G1 X16.447 Y20.697 E3.98733
G1 X16.677 Y20.191 E4.00577
G1 X16.95 Y19.688 E4.02476
G1 X17.249 Y19.22 E4.04319
G1 X17.554 Y18.813 E4.06006
G1 X17.952 Y18.353 E4.08024
G1 X18.446 Y17.857 E4.10347
G1 X18.941 Y17.454 E4.12464
G1 X19.424 Y17.114 E4.14424
G1 X19.885 Y16.838 E4.16207
G1 X20.374 Y16.591 E4.18024
G1 X20.917 Y16.358 E4.19985
G1 X21.4 Y16.196 E4.21675
G1 X21.967 Y16.046 E4.23621
G1 X22.234 Y15.99 E4.24526
G1 X22.799 Y15.903 E4.26422
G1 X23.06 Y15.88 E4.27292
G1 X23.645 Y15.856 E4.29234
G1 X24.205 Y15.871 E4.31093
G1 X24.723 Y15.926 E4.32821
G1 X25.414 Y16.046 E4.35148
G1 X26.093 Y16.238 E4.37489
G1 X26.571 Y16.409 E4.39173
G1 X27.239 Y16.708 E4.41601
G1 X27.838 Y17.053 E4.43894
G1 X28.054 Y17.193 E4.44748
G1 X28.538 Y17.547 E4.46738
G1 X28.938 Y17.883 E4.48471
G1 X29.321 Y18.256 E4.50245
G1 X29.697 Y18.679 E4.52122
G1 X29.882 Y18.91 E4.53104
G1 X30.186 Y19.333 E4.54832
G1 X30.516 Y19.873 E4.56932
G1 X30.761 Y20.351 E4.58714
G1 X30.866 Y20.586 E4.59568
G1 X31.059 Y21.079 E4.61325
G1 X31.227 Y21.615 E4.63188
G1 X31.295 Y21.876 E4.64083
G1 X31.401 Y22.413 E4.65899
G1 X31.475 Y23.001 E4.67865
G1 X31.503 Y23.565 E4.69739
G1 X31.492 Y24.145 E4.71663
G1 X31.445 Y24.651 E4.73349
G1 X31.348 Y25.239 E4.75326
G1 X31.224 Y25.754 E4.77084
G1 X31.066 Y26.26 E4.78843
G1 X30.857 Y26.794 E4.80745
G1 X30.615 Y27.304 E4.82618
G1 X30.351 Y27.77 E4.84395
G1 X30.038 Y28.239 E4.86265
G1 X29.689 Y28.691 E4.8816
G1 X29.321 Y29.103 E4.89993
G1 X29.135 Y29.29 E4.90868
G1 X28.738 Y29.652 E4.9265
G1 X28.522 Y29.826 E4.93571
G1 X28.039 Y30.177 E4.95551
G1 X27.564 Y30.471 E4.97405
G1 X27.333 Y30.599 E4.98281
G1 X26.806 Y30.851 E5.00219
G1 X26.305 Y31.052 E5.0201
G1 X25.971 Y31.165 E5.0318
G1 X25.524 Y31.283 E5.04714
G1 X24.977 Y31.394 E5.06565
G1 X24.458 Y31.465 E5.08303
G1 X23.871 Y31.5 E5.10254
M204 S2000
G0 F7500 X23.87 Y31.684
G0 X23.626 Y31.615
G0 X23.313 Y31.572
G0 X18.913 Y29.98
G0 X18.931 Y29.622
M204 S500
G1 F1500 X17.707 Y28.398 E5.15997
M204 S2000
G0 F7500 X17.389 Y28.632
G0 X16.409 Y27.026
G0 X16.767 Y26.865
M204 S500
G1 F1500 X20.491 Y30.589 E5.3347
M204 S2000
G0 F7500 X20.335 Y30.953
G0 X21.328 Y31.334
G0 X21.457 Y30.96
M204 S500
G1 F1500 X16.401 Y25.904 E5.57192
M204 S2000
G0 F7500 X16.204 Y25.114
M204 S500
G1 F1500 X22.24 Y31.15 E5.85513
M204 S2000
G0 F7500 X22.935 Y31.251
M204 S500
G1 F1500 X16.107 Y24.422 E6.17552
M204 S2000
G0 F7500 X16.071 Y23.793
M204 S500
G1 F1500 X23.565 Y31.287 E6.52713
M204 S2000
G0 F7500 X24.144 Y31.272
M204 S500
G1 F1500 X16.085 Y23.212 E6.90528
M204 S2000
G0 F7500 X16.137 Y22.671
M204 S500
G1 F1500 X24.686 Y31.22 E7.30639
M204 S2000
G0 F7500 X25.194 Y31.134
M204 S500
G1 F1500 X16.222 Y22.162 E7.72735
M204 S2000
G0 F7500 X16.335 Y21.681
M204 S500
G1 F1500 X25.677 Y31.023 E8.16567
M204 S2000
G0 F7500 X26.134 Y30.886
M204 S500
G1 F1500 X16.472 Y21.223 E8.61903
M204 S2000
G0 F7500 X16.634 Y20.792
M204 S500
G1 F1500 X26.563 Y30.72 E9.08487
M204 S2000
G0 F7500 X26.973 Y30.537
M204 S500
G1 F1500 X16.819 Y20.383 E9.56129
M204 S2000
G0 F7500 X17.022 Y19.992
M204 S500
G1 F1500 X27.368 Y30.338 E10.04672
M204 S2000
G0 F7500 X27.739 Y30.114
M204 S500
G1 F1500 X17.242 Y19.618 E10.5392
M204 S2000
G0 F7500 X17.479 Y19.261
M204 S500
G1 F1500 X28.094 Y29.875 E11.03723
M204 S2000
G0 F7500 X28.435 Y29.623
M204 S500
G1 F1500 X17.735 Y18.923 E11.53927
M204 S2000
G0 F7500 X18.01 Y18.604
M204 S500
G1 F1500 X28.755 Y29.349 E12.04341
M204 S2000
G0 F7500 X29.063 Y29.063
M204 S500
G1 F1500 X18.299 Y18.299 E12.54845
M204 S2000
G0 F7500 X18.598 Y18.004
M204 S500
G1 F1500 X29.349 Y28.755 E13.05288
M204 S2000
G0 F7500 X29.622 Y28.434
M204 S500
G1 F1500 X18.925 Y17.737 E13.55478
M204 S2000
G0 F7500 X19.265 Y17.483
M204 S500
G1 F1500 X29.879 Y28.097 E14.05278
M204 S2000
G0 F7500 X30.117 Y27.741
M204 S500
G1 F1500 X19.618 Y17.242 E14.54539
M204 S2000
G0 F7500 X19.989 Y17.02
M204 S500
G1 F1500 X30.337 Y27.367 E15.03089
M204 S2000
G0 F7500 X30.538 Y26.974
M204 S500
G1 F1500 X20.384 Y16.82 E15.50731
M204 S2000
G0 F7500 X20.796 Y16.638
M204 S500
G1 F1500 X30.721 Y26.563 E15.97298
M204 S2000
G0 F7500 X30.885 Y26.133
M204 S500
G1 F1500 X21.226 Y16.474 E16.42617
M204 S2000
G0 F7500 X21.683 Y16.337
M204 S500
G1 F1500 X31.025 Y25.679 E16.86449
M204 S2000
G0 F7500 X31.14 Y25.2
M204 S500
G1 F1500 X22.16 Y16.22 E17.28583
M204 S2000
G0 F7500 X22.669 Y16.135
M204 S500
G1 F1500 X31.225 Y24.692 E17.6873
M204 S2000
G0 F7500 X31.28 Y24.152
M204 S500
G1 F1500 X23.212 Y16.084 E18.06584
M204 S2000
G0 F7500 X23.792 Y16.07
M204 S500
G1 F1500 X31.292 Y23.57 E18.41774
M204 S2000
G0 F7500 X31.255 Y22.939
M204 S500
G1 F1500 X24.421 Y16.105 E18.73838
M204 S2000
G0 F7500 X25.117 Y16.208
M204 S500
G1 F1500 X31.153 Y22.244 E19.02159
M204 S2000
G0 F7500 X30.955 Y21.451
M204 S500
G1 F1500 X25.908 Y16.404 E19.25839
M204 S2000
G0 F7500 X26.016 Y16.024
G0 X27.031 Y16.412
G0 X26.87 Y16.773
M204 S500
G1 F1500 X30.604 Y20.507 E19.43359
M204 S2000
G0 F7500 X30.961 Y20.346
G0 X29.967 Y18.719
G0 X29.657 Y18.966
M204 S500
G1 F1500 X28.391 Y17.7 E19.49299
M204 S2000
G1 F2400 E18.69299
G0 F7500 X28.626 Y17.382
G0 X28.781 Y17.6
G0 X28.986 Y17.826
G0 X27.599 Y30.54
G0 X27.57 Y31.035
G0 X28.044 Y32.021
G0 X24.261 Y100.603
G0 X24.229 Y101.698
G0 X24.459 Y102.098
G0 X24.76 Y102.173
G0 X24.726 Y117.831
G0 X24.423 Y117.904
G0 X24.193 Y118.103
M204 S500
;TYPE:WALL-INNER
G1 F2400 E19.49299
G1 F1500 X24.757 Y118.049 E19.51178
G1 X25.029 Y118.006 E19.52092
G1 X25.59 Y117.891 E19.53992
G1 X26.143 Y117.737 E19.55896
G1 X26.693 Y117.54 E19.57835
G1 X27.21 Y117.311 E19.59711
G1 X27.459 Y117.186 E19.60635
G1 X27.959 Y116.901 E19.62544
G1 X28.436 Y116.58 E19.64452
G1 X28.929 Y116.194 E19.66529
G1 X29.133 Y116.018 E19.67423
G1 X29.545 Y115.616 E19.69333
G1 X29.923 Y115.191 E19.7122
G1 X30.273 Y114.739 E19.73117
G1 X30.431 Y114.509 E19.74042
G1 X30.747 Y113.999 E19.76033
G1 X30.886 Y113.741 E19.77005
G1 X31.13 Y113.228 E19.7889
G1 X31.344 Y112.682 E19.80835
G1 X31.507 Y112.159 E19.82653
G1 X31.579 Y111.881 E19.83606
G1 X31.689 Y111.325 E19.85486
G1 X31.766 Y110.737 E19.87454
G1 X31.797 Y110.162 E19.89364
G1 X31.788 Y109.572 E19.91322
G1 X31.767 Y109.278 E19.923
G1 X31.694 Y108.697 E19.94242
G1 X31.582 Y108.13 E19.9616
G1 X31.513 Y107.863 E19.97075
G1 X31.339 Y107.304 E19.99017
G1 X31.128 Y106.766 E20.00934
G1 X30.903 Y106.293 E20.02672
G1 X30.622 Y105.789 E20.04587
G1 X30.289 Y105.284 E20.06593
G1 X29.923 Y104.809 E20.08583
G1 X29.541 Y104.38 E20.10489
G1 X29.127 Y103.977 E20.12406
G1 X28.719 Y103.633 E20.14176
G1 X28.24 Y103.282 E20.16146
G1 X27.729 Y102.962 E20.18147
G1 X27.234 Y102.699 E20.20006
G1 X26.693 Y102.46 E20.21968
G1 X26.165 Y102.271 E20.23829
G1 X25.883 Y102.186 E20.24806
G1 X25.336 Y102.053 E20.26674
G1 X24.775 Y101.955 E20.28563
G1 X24.222 Y101.9 E20.30407
G1 X23.631 Y101.881 E20.32369
G1 X23.357 Y101.888 E20.33278
G1 X22.744 Y101.935 E20.35318
G1 X22.458 Y101.974 E20.36276
G1 X21.888 Y102.08 E20.38199
G1 X21.63 Y102.144 E20.39081
G1 X21.05 Y102.319 E20.41091
G1 X20.805 Y102.407 E20.41955
G1 X20.264 Y102.635 E20.43902
G1 X19.737 Y102.903 E20.45864
G1 X19.263 Y103.188 E20.47699
G1 X18.772 Y103.533 E20.4969
G1 X18.366 Y103.863 E20.51426
G1 X17.905 Y104.294 E20.53519
G1 X17.55 Y104.677 E20.55252
G1 X17.17 Y105.15 E20.57265
G1 X16.846 Y105.618 E20.59153
G1 X16.551 Y106.115 E20.61071
G1 X16.431 Y106.348 E20.6194
G1 X16.188 Y106.873 E20.6386
G1 X15.978 Y107.435 E20.6585
G1 X15.814 Y107.987 E20.67761
G1 X15.686 Y108.578 E20.69767
G1 X15.609 Y109.126 E20.71603
G1 X15.567 Y109.694 E20.73492
G1 X15.567 Y110.275 E20.7542
G1 X15.609 Y110.875 E20.77415
G1 X15.681 Y111.395 E20.79157
G1 X15.807 Y111.986 E20.81162
G1 X15.969 Y112.539 E20.83074
G1 X16.178 Y113.104 E20.85072
G1 X16.282 Y113.343 E20.85937
G1 X16.544 Y113.87 E20.8789
G1 X16.945 Y114.54 E20.9048
G1 X17.322 Y115.048 E20.92579
G1 X17.712 Y115.505 E20.94572
G1 X17.905 Y115.706 E20.95497
G1 X18.325 Y116.103 E20.97414
G1 X18.772 Y116.467 E20.99327
G1 X19.226 Y116.787 E21.0117
G1 X19.473 Y116.943 E21.02139
G1 X19.988 Y117.231 E21.04096
G1 X20.486 Y117.465 E21.05922
