;FLAVOR:Marlin
;TIME:2496
;Filament used: 2.42299m
;Layer height: 0.32
;MINX:15.136
;MINY:15.131
;MINZ:0.32
;MAXX:204.868
;MAXY:204.866
;MAXZ:11.84
;Generated with Cura_SteamEngine 5.4.0
M82 ;absolute extrusion mode
; Ender 3 S1 Start G-code
; M413 S0 ; Disable power loss recovery
G92 E0 ; Reset Extruder

; Prep surfaces before auto home for better accuracy
M140 S60
M104 S200

G28 O ; Home all untrusted axes
G1 Z10.0 F3000 ; Move Z Axis up little to prevent scratching of Heat Bed
G1 X0 Y0

M190 S60
M109 S200

G1 X0.1 Y20 Z0.3 F5000.0 ; Move to start position
G1 X0.1 Y200.0 Z0.3 F1500.0 E15 ; Draw the first line
G1 X0.4 Y200.0 Z0.3 F5000.0 ; Move to side a little
G1 X0.4 Y20 Z0.3 F1500.0 E30 ; Draw the second line
G92 E0 ; Reset Extruder
G1 Z2.0 F3000 ; Move Z Axis up little to prevent scratching of Heat Bed
G1 X5 Y20 Z0.3 F5000.0 ; Move over to prevent blob squish

G92 E0
G92 E0
G1 F2400 E-0.8
;LAYER_COUNT:37
;LAYER:0
M107
M204 S2000
;MESH:Bed Adhesion Test v8.stl
G0 F7500 X26.991 Y31.126 Z0.32
M204 S500
;TYPE:WALL-INNER
G1 F2400 E0
G1 F1500 X27.491 Y30.883 E0.02958
G1 X28.003 Y30.586 E0.06108
G1 X28.483 Y30.261 E0.09193
G1 X28.947 Y29.898 E0.12328
G1 X29.374 Y29.511 E0.15395
G1 X29.766 Y29.1 E0.18417
G1 X30.132 Y28.659 E0.21467
G1 X30.308 Y28.421 E0.23042
G1 X30.61 Y27.969 E0.25935
G1 X30.777 Y27.687 E0.27679
G1 X31.039 Y27.183 E0.30702
G1 X31.268 Y26.655 E0.33765
G1 X31.464 Y26.092 E0.36937
G1 X31.618 Y25.529 E0.40044
G1 X31.671 Y25.275 E0.41424
G1 X31.769 Y24.678 E0.44644
G1 X31.818 Y24.123 E0.47609
G1 X31.828 Y23.547 E0.50675
G1 X31.797 Y22.959 E0.53808
G1 X31.724 Y22.372 E0.56956
G1 X31.611 Y21.805 E0.60033
G1 X31.461 Y21.26 E0.63041
G1 X31.265 Y20.701 E0.66193
G1 X31.036 Y20.171 E0.69266
G1 X30.779 Y19.677 E0.72229
G1 X30.464 Y19.164 E0.75433
G1 X30.137 Y18.707 E0.78423
G1 X29.952 Y18.476 E0.79998
G1 X29.563 Y18.039 E0.83111
G1 X29.157 Y17.645 E0.86122
G1 X28.949 Y17.462 E0.87596
G1 X28.49 Y17.103 E0.90697
G1 X27.992 Y16.765 E0.939
G1 X27.49 Y16.476 E0.96983
G1 X27.257 Y16.358 E0.98373
G1 X26.704 Y16.113 E1.01591
G1 X26.182 Y15.924 E1.04546
G1 X25.6 Y15.759 E1.07765
G1 X25.346 Y15.703 E1.09149
G1 X24.749 Y15.602 E1.12371
G1 X24.193 Y15.546 E1.15345
G1 X23.612 Y15.531 E1.18438
G1 X23.03 Y15.557 E1.21538
G1 X22.449 Y15.625 E1.24651
G1 X21.898 Y15.728 E1.27634
G1 X21.317 Y15.882 E1.30833
G1 X20.789 Y16.06 E1.33798
G1 X20.246 Y16.291 E1.36938
G1 X19.722 Y16.556 E1.40063
G1 X19.24 Y16.846 E1.43057
G1 X19.002 Y17.008 E1.44589
G1 X18.531 Y17.363 E1.47728
G1 X18.093 Y17.748 E1.50831
G1 X17.684 Y18.159 E1.53916
G1 X17.317 Y18.589 E1.56925
G1 X16.971 Y19.055 E1.60014
G1 X16.666 Y19.533 E1.63031
G1 X16.378 Y20.062 E1.66236
G1 X16.15 Y20.566 E1.6918
G1 X15.94 Y21.131 E1.72388
G1 X15.783 Y21.665 E1.7535
G1 X15.665 Y22.204 E1.78286
G1 X15.579 Y22.803 E1.81506
G1 X15.536 Y23.403 E1.84708
G1 X15.536 Y23.956 E1.8765
G1 X15.58 Y24.557 E1.90857
G1 X15.657 Y25.107 E1.93813
G1 X15.781 Y25.688 E1.96974
G1 X15.94 Y26.228 E1.9997
G1 X16.15 Y26.793 E2.03178
G1 X16.378 Y27.297 E2.06121
G1 X16.662 Y27.818 E2.09279
G1 X16.971 Y28.304 E2.12344
G1 X17.317 Y28.77 E2.15433
G1 X17.684 Y29.2 E2.18441
G1 X18.093 Y29.611 E2.21527
G1 X18.533 Y29.996 E2.24638
G1 X18.763 Y30.178 E2.26199
G1 X19.247 Y30.517 E2.29343
G1 X19.722 Y30.803 E2.32294
G1 X20.246 Y31.068 E2.35419
G1 X20.79 Y31.299 E2.38564
G1 X21.317 Y31.477 E2.41524
G1 X21.899 Y31.631 E2.44728
G1 X22.449 Y31.734 E2.47706
G1 X23.029 Y31.803 E2.50814
G1 X23.323 Y31.821 E2.52382
G1 X23.889 Y31.825 E2.55394
G1 X24.478 Y31.79 E2.58534
G1 X25.044 Y31.712 E2.61574
G1 X25.617 Y31.595 E2.64686
G1 X26.185 Y31.434 E2.67828
G1 X26.429 Y31.351 E2.692
G1 X26.991 Y31.126 E2.72421
M204 S2000
G0 F7500 X27.153 Y31.492
M204 S500
;TYPE:WALL-OUTER
G1 F1500 X27.679 Y31.237 E2.75532
G1 X28.216 Y30.925 E2.78837
G1 X28.719 Y30.585 E2.82068
G1 X29.205 Y30.204 E2.85354
G1 X29.654 Y29.797 E2.88579
G1 X30.065 Y29.366 E2.91748
G1 X30.447 Y28.906 E2.9493
G1 X30.636 Y28.651 E2.9662
G1 X30.948 Y28.182 E2.99617
G1 X31.127 Y27.881 E3.01481
G1 X31.4 Y27.355 E3.04635
G1 X31.641 Y26.801 E3.0785
G1 X31.846 Y26.21 E3.11179
G1 X32.007 Y25.623 E3.14418
G1 X32.065 Y25.349 E3.15908
G1 X32.166 Y24.728 E3.19256
G1 X32.218 Y24.144 E3.22376
G1 X32.228 Y23.54 E3.25591
G1 X32.196 Y22.923 E3.28879
G1 X32.119 Y22.308 E3.32177
G1 X32.001 Y21.713 E3.35405
G1 X31.843 Y21.14 E3.38568
G1 X31.638 Y20.555 E3.41867
G1 X31.398 Y19.999 E3.4509
G1 X31.127 Y19.48 E3.48206
G1 X30.798 Y18.943 E3.51557
G1 X30.456 Y18.465 E3.54685
G1 X30.258 Y18.218 E3.56369
G1 X29.852 Y17.762 E3.59619
G1 X29.429 Y17.351 E3.62757
G1 X29.204 Y17.154 E3.64349
G1 X28.726 Y16.779 E3.67582
G1 X28.204 Y16.426 E3.70935
G1 X27.68 Y16.124 E3.74154
G1 X27.428 Y15.996 E3.75658
G1 X26.853 Y15.741 E3.79005
G1 X26.304 Y15.543 E3.82111
G1 X25.698 Y15.371 E3.85463
G1 X25.423 Y15.31 E3.86962
G1 X24.803 Y15.205 E3.90309
G1 X24.218 Y15.146 E3.93438
G1 X23.608 Y15.131 E3.96685
G1 X22.998 Y15.158 E3.99934
G1 X22.389 Y15.229 E4.03197
G1 X21.81 Y15.338 E4.06332
G1 X21.202 Y15.498 E4.09678
G1 X20.647 Y15.686 E4.12796
G1 X20.077 Y15.928 E4.16092
G1 X19.528 Y16.206 E4.19367
G1 X19.024 Y16.509 E4.22496
G1 X18.769 Y16.683 E4.24139
G1 X18.279 Y17.053 E4.27406
G1 X17.819 Y17.456 E4.30661
G1 X17.39 Y17.888 E4.33901
G1 X17.004 Y18.339 E4.3706
G1 X16.641 Y18.828 E4.40301
G1 X16.321 Y19.329 E4.43464
G1 X16.02 Y19.884 E4.46824
G1 X15.78 Y20.414 E4.4992
G1 X15.56 Y21.005 E4.53276
G1 X15.395 Y21.566 E4.56388
G1 X15.271 Y22.133 E4.59477
G1 X15.181 Y22.76 E4.62848
G1 X15.136 Y23.389 E4.66204
G1 X15.136 Y23.97 E4.69295
G1 X15.182 Y24.599 E4.72652
G1 X15.263 Y25.177 E4.75758
G1 X15.393 Y25.786 E4.79072
G1 X15.56 Y26.354 E4.82222
G1 X15.78 Y26.945 E4.85578
G1 X16.02 Y27.475 E4.88674
G1 X16.317 Y28.022 E4.91987
G1 X16.641 Y28.531 E4.95197
G1 X17.004 Y29.02 E4.98438
G1 X17.39 Y29.471 E5.01597
G1 X17.819 Y29.903 E5.04837
G1 X18.277 Y30.304 E5.08077
G1 X18.525 Y30.499 E5.09756
G1 X19.029 Y30.853 E5.13033
G1 X19.528 Y31.153 E5.16132
G1 X20.077 Y31.431 E5.19407
G1 X20.648 Y31.673 E5.22707
G1 X21.202 Y31.861 E5.2582
G1 X21.811 Y32.021 E5.29171
G1 X22.389 Y32.13 E5.32301
G1 X22.993 Y32.201 E5.35537
G1 X23.309 Y32.221 E5.37222
G1 X23.899 Y32.225 E5.40362
G1 X24.518 Y32.188 E5.43662
G1 X25.112 Y32.106 E5.46853
G1 X25.711 Y31.984 E5.50106
G1 X26.303 Y31.816 E5.53381
G1 X26.568 Y31.727 E5.54869
G1 X27.153 Y31.492 E5.58224
M204 S2000
G0 F7500 X27.022 Y31.222
G0 X26.301 Y31.295
G0 X26.205 Y31.054
M204 S500
;TYPE:SKIN
G1 F1500 X25.532 Y31.243 E5.61944
G1 X24.973 Y31.357 E5.6498
G1 X24.455 Y31.43 E5.67764
G1 X23.869 Y31.464 E5.70887
G1 X23.345 Y31.461 E5.73676
G1 X23.056 Y31.442 E5.75217
G1 X22.498 Y31.376 E5.78207
G1 X21.99 Y31.28 E5.80959
G1 X21.41 Y31.128 E5.84149
G1 X20.929 Y30.965 E5.86852
G1 X20.395 Y30.739 E5.89938
G1 X19.909 Y30.492 E5.92839
G1 X19.434 Y30.209 E5.95781
G1 X18.984 Y29.891 E5.98714
G1 X18.756 Y29.712 E6.00256
G1 X18.333 Y29.341 E6.0325
G1 X17.95 Y28.956 E6.0614
G1 X17.593 Y28.538 E6.09066
G1 X17.268 Y28.103 E6.11955
G1 X16.979 Y27.645 E6.14837
G1 X16.701 Y27.136 E6.17924
G1 X16.485 Y26.655 E6.2073
G1 X16.279 Y26.102 E6.2387
G1 X16.127 Y25.585 E6.26738
G1 X16.01 Y25.033 E6.29741
G1 X15.941 Y24.53 E6.32442
G1 X15.896 Y23.93 E6.35644
G1 X15.896 Y23.429 E6.38311
G1 X15.94 Y22.831 E6.41501
G1 X16.018 Y22.28 E6.44463
G1 X16.128 Y21.767 E6.47255
G1 X16.279 Y21.257 E6.50085
G1 X16.485 Y20.704 E6.53226
G1 X16.701 Y20.223 E6.56032
G1 X16.983 Y19.706 E6.59166
G1 X17.268 Y19.26 E6.61982
G1 X17.593 Y18.821 E6.64889
G1 X17.95 Y18.403 E6.67814
G1 X18.332 Y18.018 E6.70701
G1 X18.762 Y17.642 E6.7374
G1 X19.209 Y17.306 E6.76716
G1 X19.426 Y17.155 E6.78123
G1 X19.907 Y16.867 E6.81107
G1 X20.395 Y16.62 E6.84017
G1 X20.927 Y16.394 E6.87093
G1 X21.421 Y16.227 E6.89868
G1 X21.979 Y16.08 E6.92939
G1 X22.492 Y15.983 E6.95717
G1 X23.059 Y15.917 E6.98755
G1 X23.619 Y15.892 E7.01738
G1 X24.176 Y15.906 E7.04703
G1 X24.689 Y15.958 E7.07447
G1 X25.408 Y16.081 E7.11329
G1 X26.081 Y16.272 E7.15052
G1 X26.558 Y16.443 E7.17749
G1 X27.228 Y16.741 E7.21651
G1 X27.791 Y17.065 E7.25108
G1 X28.268 Y17.387 E7.2817
G1 X28.725 Y17.745 E7.3126
G1 X28.913 Y17.911 E7.32594
G1 X29.302 Y18.288 E7.35477
G1 X29.67 Y18.701 E7.38421
G1 X29.854 Y18.932 E7.39992
G1 X30.157 Y19.355 E7.42761
G1 X30.472 Y19.866 E7.45956
G1 X30.717 Y20.336 E7.48776
G1 X30.976 Y20.936 E7.52254
G1 X31.119 Y21.377 E7.54721
G1 X31.257 Y21.877 E7.57482
G1 X31.366 Y22.42 E7.60429
G1 X31.439 Y23.003 E7.63556
G1 X31.467 Y23.565 E7.6655
G1 X31.458 Y24.113 E7.69467
G1 X31.413 Y24.621 E7.72181
G1 X31.296 Y25.339 E7.76052
G1 X31.122 Y25.974 E7.79556
G1 X30.93 Y26.53 E7.82686
G1 X30.711 Y27.033 E7.85606
G1 X30.466 Y27.504 E7.88431
G1 X30.299 Y27.784 E7.90166
G1 X30.017 Y28.208 E7.92876
G1 X29.842 Y28.444 E7.94439
G1 X29.498 Y28.86 E7.97312
G1 X29.132 Y29.244 E8.00135
G1 X28.71 Y29.628 E8.03171
G1 X28.279 Y29.963 E8.06076
G1 X27.813 Y30.279 E8.09072
G1 X27.31 Y30.57 E8.12165
G1 X26.854 Y30.793 E8.14866
G1 X26.205 Y31.054 E8.18589
M204 S2000
G0 F7500 X26.301 Y31.295
G0 X24.462 Y31.63
G0 X23.044 Y31.642
G0 X21.935 Y31.474
G0 X20.056 Y30.86
G0 X20.265 Y30.448
M204 S500
G1 F1500 X16.898 Y27.08 E8.43932
M204 S2000
G0 F7500 X16.494 Y27.299
G0 X16.063 Y26.27
G0 X16.496 Y26.112
M204 S500
G1 F1500 X21.242 Y30.859 E8.79654
M204 S2000
G0 F7500 X22.033 Y31.084
M204 S500
G1 F1500 X16.277 Y25.328 E9.22973
M204 S2000
G0 F7500 X16.158 Y24.644
M204 S500
G1 F1500 X22.713 Y31.198 E9.72302
M204 S2000
G0 F7500 X23.339 Y31.259
M204 S500
G1 F1500 X16.102 Y24.022 E10.26767
M204 S2000
G0 F7500 X16.095 Y23.449
M204 S500
G1 F1500 X23.906 Y31.26 E10.85552
M204 S2000
G0 F7500 X24.44 Y31.228
M204 S500
G1 F1500 X16.133 Y22.921 E11.48069
M204 S2000
G0 F7500 X16.199 Y22.421
M204 S500
G1 F1500 X24.936 Y31.158 E12.13823
M204 S2000
G0 F7500 X25.405 Y31.062
M204 S500
G1 F1500 X16.293 Y21.95 E12.82399
M204 S2000
G0 F7500 X16.413 Y21.504
M204 S500
G1 F1500 X25.851 Y30.942 E13.53429
M204 S2000
G0 F7500 X26.28 Y30.805
M204 S500
G1 F1500 X16.556 Y21.082 E14.26607
M204 S2000
G0 F7500 X16.716 Y20.675
M204 S500
G1 F1500 X26.684 Y30.643 E15.01625
M204 S2000
G0 F7500 X27.069 Y30.463
M204 S500
G1 F1500 X16.892 Y20.286 E15.78216
M204 S2000
G0 F7500 X17.092 Y19.92
M204 S500
G1 F1500 X27.436 Y30.264 E16.56064
M204 S2000
G0 F7500 X27.789 Y30.052
M204 S500
G1 F1500 X17.306 Y19.569 E17.34959
M204 S2000
G0 F7500 X17.535 Y19.232
M204 S500
G1 F1500 X28.126 Y29.823 E18.14665
M204 S2000
G0 F7500 X28.446 Y29.577
M204 S500
G1 F1500 X17.778 Y18.91 E18.94948
M204 S2000
G0 F7500 X18.039 Y18.604
M204 S500
G1 F1500 X28.751 Y29.317 E19.75569
M204 S2000
G0 F7500 X29.045 Y29.045
M204 S500
G1 F1500 X18.316 Y18.316 E20.56315
M204 S2000
G0 F7500 X18.608 Y18.042
M204 S500
G1 F1500 X29.32 Y28.755 E21.36936
M204 S2000
G0 F7500 X29.578 Y28.447
M204 S500
G1 F1500 X18.911 Y17.78 E22.17215
M204 S2000
G0 F7500 X19.234 Y17.536
M204 S500
G1 F1500 X29.826 Y28.129 E22.96933
M204 S2000
G0 F7500 X30.054 Y27.791
M204 S500
G1 F1500 X19.567 Y17.304 E23.75857
M204 S2000
G0 F7500 X19.92 Y17.092
M204 S500
G1 F1500 X30.269 Y27.441 E24.53743
M204 S2000
G0 F7500 X30.464 Y27.07
M204 S500
G1 F1500 X20.29 Y16.896 E25.30312
M204 S2000
G0 F7500 X20.677 Y16.717
M204 S500
G1 F1500 X30.643 Y26.684 E26.05319
M204 S2000
G0 F7500 X30.804 Y26.278
M204 S500
G1 F1500 X21.079 Y16.554 E26.78504
M204 S2000
G0 F7500 X21.503 Y16.412
M204 S500
G1 F1500 X30.947 Y25.856 E27.49579
M204 S2000
G0 F7500 X31.068 Y25.411
M204 S500
G1 F1500 X21.95 Y16.293 E28.182
M204 S2000
G0 F7500 X22.423 Y16.2
M204 S500
G1 F1500 X31.157 Y24.935 E28.83935
M204 S2000
G0 F7500 X31.227 Y24.439
M204 S500
G1 F1500 X22.922 Y16.134 E29.46438
M204 S2000
G0 F7500 X23.454 Y16.1
M204 S500
G1 F1500 X31.261 Y23.907 E30.05193
M204 S2000
G0 F7500 X31.255 Y23.335
M204 S500
G1 F1500 X24.022 Y16.102 E30.59628
M204 S2000
G0 F7500 X24.639 Y16.153
M204 S500
G1 F1500 X31.201 Y22.715 E31.09013
M204 S2000
G0 F7500 X31.084 Y22.033
M204 S500
G1 F1500 X25.319 Y16.268 E31.524
M204 S2000
G0 F7500 X26.114 Y16.497
M204 S500
G1 F1500 X30.866 Y21.249 E31.88163
M204 S2000
G0 F7500 X31.298 Y21.097
G0 X30.638 Y19.638
G0 X30.46 Y20.277
M204 S500
G1 F1500 X27.073 Y16.891 E32.13649
M204 S2000
G1 F2400 E31.33649
G0 F7500 X27.28 Y16.483
G0 X29.701 Y17.921
G0 X30.509 Y17.199
G0 X104.293 Y31.165
G0 X110.209 Y31.825
M204 S500
;TYPE:WALL-INNER
G1 F2400 E32.13649
G1 F1500 X110.798 Y31.79 E32.16789
G1 X111.364 Y31.712 E32.1983
G1 X111.938 Y31.595 E32.22947
G1 X112.503 Y31.435 E32.26072
G1 X113.025 Y31.246 E32.29026
G1 X113.567 Y31.006 E32.32181
G1 X114.087 Y30.73 E32.35314
G1 X114.577 Y30.424 E32.38388
G1 X115.031 Y30.092 E32.41381
G1 X115.26 Y29.905 E32.42954
G1 X115.694 Y29.511 E32.46074
G1 X116.087 Y29.1 E32.491
G1 X116.455 Y28.657 E32.52165
G1 X116.79 Y28.186 E32.55241
G1 X116.95 Y27.937 E32.56816
G1 X117.239 Y27.426 E32.5994
G1 X117.362 Y27.176 E32.61423
G1 X117.632 Y26.553 E32.65036
G1 X117.7 Y26.327 E32.66292
G1 X117.786 Y26.088 E32.67643
G1 X117.931 Y25.555 E32.70583
G1 X118.048 Y24.971 E32.73753
G1 X118.119 Y24.391 E32.76862
G1 X118.149 Y23.812 E32.79948
G1 X118.139 Y23.234 E32.83024
G1 X118.09 Y22.681 E32.85978
G1 X117.998 Y22.111 E32.89051
G1 X117.86 Y21.524 E32.9226
G1 X117.691 Y20.983 E32.95276
G1 X117.476 Y20.434 E32.98414
G1 X117.238 Y19.932 E33.0137
G1 X116.94 Y19.406 E33.04587
G1 X116.791 Y19.172 E33.06064
G1 X116.448 Y18.694 E33.09194
G1 X116.077 Y18.248 E33.12282
G1 X115.888 Y18.044 E33.13762
G1 X115.483 Y17.65 E33.16768
G1 X115.023 Y17.261 E33.19974
G1 X114.577 Y16.935 E33.22914
G1 X114.086 Y16.629 E33.25993
G1 X113.567 Y16.353 E33.29121
G1 X113.025 Y16.113 E33.32276
G1 X112.503 Y15.924 E33.3523
G1 X111.921 Y15.759 E33.38449
G1 X111.667 Y15.703 E33.39833
G1 X111.07 Y15.602 E33.43056
G1 X110.513 Y15.546 E33.46035
G1 X109.933 Y15.531 E33.49122
G1 X109.35 Y15.557 E33.52228
G1 X108.769 Y15.625 E33.55341
G1 X108.219 Y15.728 E33.58319
G1 X107.637 Y15.882 E33.61522
G1 X107.109 Y16.06 E33.64488
G1 X106.566 Y16.291 E33.67628
G1 X106.042 Y16.556 E33.70753
G1 X105.492 Y16.886 E33.74166
G1 X104.847 Y17.369 E33.78454
G1 X104.42 Y17.74 E33.81464
G1 X104.015 Y18.149 E33.84527
G1 X103.818 Y18.37 E33.86103
G1 X103.453 Y18.828 E33.8922
G1 X103.134 Y19.292 E33.92216
G1 X102.979 Y19.545 E33.93795
G1 X102.698 Y20.062 E33.96926
G1 X102.471 Y20.565 E33.99863
G1 X102.262 Y21.13 E34.03069
G1 X102.046 Y21.867 E34.07156
G1 X101.935 Y22.512 E34.10639
G1 X101.873 Y23.091 E34.13738
G1 X101.852 Y23.691 E34.16933
G1 X101.873 Y24.262 E34.19973
G1 X101.933 Y24.827 E34.22997
G1 X101.981 Y25.119 E34.24572
G1 X102.103 Y25.688 E34.27669
G1 X102.261 Y26.228 E34.30663
G1 X102.471 Y26.794 E34.33875
G1 X102.698 Y27.297 E34.36812
G1 X102.979 Y27.814 E34.39944
G1 X103.134 Y28.066 E34.41518
G1 X103.457 Y28.537 E34.44557
G1 X103.639 Y28.771 E34.46135
G1 X104.021 Y29.215 E34.49252
G1 X104.418 Y29.616 E34.52255
G1 X104.624 Y29.802 E34.53732
G1 X105.075 Y30.171 E34.56833
G1 X105.567 Y30.517 E34.60033
G1 X106.042 Y30.803 E34.62984
G1 X106.566 Y31.068 E34.66109
G1 X107.11 Y31.299 E34.69254
G1 X107.637 Y31.477 E34.72214
G1 X108.221 Y31.631 E34.75428
G1 X108.769 Y31.734 E34.78396
G1 X109.349 Y31.803 E34.81504
G1 X109.643 Y31.821 E34.83071
G1 X110.209 Y31.825 E34.86084
M204 S2000
G0 F7500 X110.219 Y32.225
M204 S500
;TYPE:WALL-OUTER
G1 F1500 X110.838 Y32.188 E34.89383
G1 X111.432 Y32.106 E34.92574
G1 X112.032 Y31.984 E34.95833
G1 X112.625 Y31.816 E34.99113
G1 X113.174 Y31.618 E35.02218
G1 X113.742 Y31.366 E35.05525
G1 X114.287 Y31.077 E35.08808
G1 X114.801 Y30.756 E35.12033
