;FLAVOR:Marlin
;TIME:3538
;Filament used: 3.6094m
;Layer height: 0.32
;MINX:11.182
;MINY:11.181
;MINZ:0.32
;MAXX:208.819
;MAXY:208.819
;MAXZ:16
;Generated with Cura_SteamEngine 5.4.0
M82 ;absolute extrusion mode
; Ender 3 S1 Start G-code
; M413 S0 ; Disable power loss recovery
G92 E0 ; Reset Extruder

; Prep surfaces before auto home for better accuracy
M140 S60
M104 S200

G28 O ; Home all untrusted axes
G1 Z10.0 F3000 ; Move Z Axis up little to prevent scratching of Heat Bed
G1 X0 Y0

M190 S60
M109 S200

G1 X0.1 Y20 Z0.3 F5000.0 ; Move to start position
G1 X0.1 Y200.0 Z0.3 F1500.0 E15 ; Draw the first line
G1 X0.4 Y200.0 Z0.3 F5000.0 ; Move to side a little
G1 X0.4 Y20 Z0.3 F1500.0 E30 ; Draw the second line
G92 E0 ; Reset Extruder
G1 Z2.0 F3000 ; Move Z Axis up little to prevent scratching of Heat Bed
G1 X5 Y20 Z0.3 F5000.0 ; Move over to prevent blob squish

G92 E0
G92 E0
G1 F2400 E-0.8
;LAYER_COUNT:50
;LAYER:0
M107
M204 S2000
;MESH:Bed Adhesion Test 3.0 v8.stl
G0 F7500 X28.34 Y34.847 Z0.32
M204 S500
;TYPE:WALL-INNER
G1 F2400 E0
G1 F1500 X28.719 Y34.679 E0.02206
G1 X29.114 Y34.49 E0.04536
G1 X29.478 Y34.301 E0.06719
G1 X29.852 Y34.087 E0.09012
G1 X30.22 Y33.86 E0.11313
G1 X30.568 Y33.628 E0.13539
G1 X30.918 Y33.377 E0.15831
G1 X31.247 Y33.122 E0.18046
G1 X31.573 Y32.849 E0.20309
G1 X31.897 Y32.561 E0.22616
G1 X32.204 Y32.269 E0.2487
G1 X32.5 Y31.965 E0.27128
G1 X32.784 Y31.65 E0.29385
G1 X33.05 Y31.334 E0.31584
G1 X33.321 Y30.991 E0.3391
G1 X33.569 Y30.653 E0.36141
G1 X34.034 Y29.941 E0.40666
G1 X34.451 Y29.196 E0.4521
G1 X34.634 Y28.821 E0.4743
G1 X34.809 Y28.427 E0.49724
G1 X34.969 Y28.034 E0.51983
G1 X35.115 Y27.633 E0.54254
G1 X35.248 Y27.229 E0.56517
G1 X35.364 Y26.824 E0.58759
G1 X35.468 Y26.41 E0.6103
G1 X35.558 Y25.994 E0.63296
G1 X35.632 Y25.576 E0.65555
G1 X35.691 Y25.157 E0.67806
G1 X35.733 Y24.747 E0.7
G1 X35.763 Y24.31 E0.72331
G1 X35.779 Y23.885 E0.74594
G1 X35.779 Y23.462 E0.76845
G1 X35.763 Y23.038 E0.79103
G1 X35.733 Y22.613 E0.8137
G1 X35.689 Y22.19 E0.83633
G1 X35.63 Y21.771 E0.85885
G1 X35.556 Y21.354 E0.88139
G1 X35.467 Y20.944 E0.90372
G1 X35.362 Y20.526 E0.92665
G1 X35.245 Y20.123 E0.94898
G1 X35.111 Y19.715 E0.97184
G1 X34.966 Y19.316 E0.99443
G1 X34.808 Y18.928 E1.01672
G1 X34.631 Y18.534 E1.03971
G1 X34.447 Y18.159 E1.06194
G1 X34.207 Y17.708 E1.08912
G1 X33.801 Y17.049 E1.13032
G1 X33.566 Y16.702 E1.15262
G1 X33.321 Y16.368 E1.17466
G1 X33.051 Y16.025 E1.19789
G1 X32.78 Y15.705 E1.22021
G1 X32.492 Y15.386 E1.24308
G1 X32.195 Y15.082 E1.26569
G1 X31.893 Y14.793 E1.28794
G1 X31.575 Y14.511 E1.31056
G1 X31.244 Y14.236 E1.33346
G1 X30.912 Y13.979 E1.3558
G1 X30.568 Y13.731 E1.37837
G1 X30.22 Y13.499 E1.40063
G1 X29.847 Y13.27 E1.42392
G1 X29.478 Y13.058 E1.44656
G1 X29.114 Y12.869 E1.46839
G1 X28.72 Y12.68 E1.49165
G1 X28.331 Y12.508 E1.51428
G1 X27.939 Y12.354 E1.53669
G1 X27.54 Y12.211 E1.55925
G1 X27.143 Y12.086 E1.5814
G1 X26.721 Y11.969 E1.6047
G1 X26.128 Y11.824 E1.63719
G1 X25.191 Y11.677 E1.68766
G1 X24.639 Y11.619 E1.7172
G1 X24.206 Y11.592 E1.74029
G1 X23.786 Y11.581 E1.76265
G1 X22.981 Y11.597 E1.80549
G1 X22.087 Y11.685 E1.8533
G1 X21.668 Y11.749 E1.87585
G1 X21.261 Y11.824 E1.89788
G1 X20.848 Y11.917 E1.92041
G1 X20.425 Y12.028 E1.94368
G1 X20.017 Y12.148 E1.96631
G1 X19.616 Y12.283 E1.98883
G1 X19.224 Y12.43 E2.01111
G1 X18.838 Y12.592 E2.03338
G1 X18.44 Y12.774 E2.05667
G1 X18.071 Y12.96 E2.07866
G1 X17.687 Y13.169 E2.10193
G1 X17.324 Y13.385 E2.12441
G1 X16.976 Y13.609 E2.14643
G1 X16.616 Y13.858 E2.16973
G1 X16.28 Y14.108 E2.19201
G1 X15.944 Y14.377 E2.21492
G1 X15.623 Y14.654 E2.23748
G1 X15.311 Y14.942 E2.26008
G1 X15.009 Y15.241 E2.28269
G1 X14.722 Y15.546 E2.30498
G1 X14.439 Y15.871 E2.32791
G1 X14.175 Y16.195 E2.35015
G1 X13.916 Y16.538 E2.37303
G1 X13.67 Y16.885 E2.39566
G1 X13.444 Y17.232 E2.4177
G1 X13.217 Y17.605 E2.44094
G1 X12.884 Y18.202 E2.47731
G1 X12.536 Y18.951 E2.52127
G1 X12.317 Y19.525 E2.55396
G1 X12.178 Y19.926 E2.57655
G1 X12.054 Y20.331 E2.59909
G1 X11.947 Y20.73 E2.62107
G1 X11.848 Y21.155 E2.64429
G1 X11.766 Y21.573 E2.66696
G1 X11.666 Y22.263 E2.70406
G1 X11.602 Y22.998 E2.74332
G1 X11.582 Y23.685 E2.7799
G1 X11.602 Y24.363 E2.816
G1 X11.66 Y25.089 E2.85475
G1 X11.767 Y25.787 E2.89233
G1 X11.848 Y26.204 E2.91494
G1 X11.947 Y26.629 E2.93816
G1 X12.054 Y27.028 E2.96014
G1 X12.178 Y27.433 E2.98268
G1 X12.317 Y27.833 E3.00522
G1 X12.539 Y28.407 E3.03797
G1 X12.887 Y29.159 E3.08207
G1 X13.218 Y29.754 E3.1183
G1 X13.443 Y30.127 E3.14148
G1 X13.67 Y30.474 E3.16355
G1 X13.916 Y30.821 E3.18618
G1 X14.175 Y31.164 E3.20906
G1 X14.439 Y31.488 E3.2313
G1 X14.722 Y31.813 E3.25423
G1 X15.009 Y32.118 E3.27652
G1 X15.311 Y32.417 E3.29913
G1 X15.623 Y32.705 E3.32173
G1 X15.944 Y32.982 E3.34429
G1 X16.281 Y33.252 E3.36727
G1 X16.616 Y33.502 E3.38952
G1 X17.324 Y33.974 E3.4348
G1 X17.687 Y34.19 E3.45728
G1 X18.071 Y34.399 E3.48054
G1 X18.44 Y34.585 E3.50253
G1 X18.838 Y34.767 E3.52582
G1 X19.224 Y34.929 E3.5481
G1 X19.616 Y35.076 E3.57038
G1 X20.017 Y35.211 E3.5929
G1 X20.425 Y35.331 E3.61553
G1 X20.848 Y35.442 E3.6388
G1 X21.261 Y35.534 E3.66132
G1 X21.668 Y35.61 E3.68335
G1 X22.087 Y35.674 E3.70591
G1 X22.981 Y35.762 E3.75371
G1 X23.786 Y35.778 E3.79656
G1 X24.206 Y35.767 E3.81892
G1 X24.642 Y35.74 E3.84216
G1 X25.192 Y35.688 E3.87156
G1 X26.127 Y35.533 E3.922
G1 X26.722 Y35.39 E3.95457
G1 X27.143 Y35.273 E3.97782
G1 X27.546 Y35.146 E4.0003
G1 X27.939 Y35.005 E4.02252
G1 X28.34 Y34.847 E4.04546
M204 S2000
G0 F7500 X28.494 Y35.216
M204 S500
;TYPE:WALL-OUTER
G1 F1500 X28.887 Y35.043 E4.06831
G1 X29.293 Y34.848 E4.09228
G1 X29.67 Y34.652 E4.11489
G1 X30.056 Y34.431 E4.13856
G1 X30.436 Y34.197 E4.16231
G1 X30.796 Y33.957 E4.18534
G1 X31.157 Y33.698 E4.20898
G1 X31.498 Y33.434 E4.23193
G1 X31.835 Y33.152 E4.25531
G1 X32.168 Y32.855 E4.27906
G1 X32.485 Y32.553 E4.30236
G1 X32.792 Y32.239 E4.32573
G1 X33.086 Y31.913 E4.34909
G1 X33.36 Y31.587 E4.37175
G1 X33.639 Y31.233 E4.39574
G1 X33.896 Y30.883 E4.41884
G1 X34.141 Y30.52 E4.44215
G1 X34.378 Y30.145 E4.46576
G1 X34.805 Y29.382 E4.51229
G1 X34.996 Y28.99 E4.53549
G1 X35.177 Y28.584 E4.55915
G1 X35.343 Y28.178 E4.58249
G1 X35.493 Y27.764 E4.60592
G1 X35.63 Y27.347 E4.62928
G1 X35.75 Y26.928 E4.65248
G1 X35.858 Y26.501 E4.67591
G1 X35.95 Y26.071 E4.69932
G1 X36.027 Y25.639 E4.72267
G1 X36.088 Y25.205 E4.74599
G1 X36.131 Y24.781 E4.76867
G1 X36.163 Y24.331 E4.79268
G1 X36.179 Y23.892 E4.81605
G1 X36.179 Y23.455 E4.83931
G1 X36.163 Y23.016 E4.86269
G1 X36.131 Y22.578 E4.88606
G1 X36.086 Y22.142 E4.90938
G1 X36.025 Y21.708 E4.93271
G1 X35.948 Y21.277 E4.95601
G1 X35.857 Y20.853 E4.97908
G1 X35.748 Y20.422 E5.00274
G1 X35.627 Y20.005 E5.02585
G1 X35.489 Y19.584 E5.04943
G1 X35.339 Y19.172 E5.07276
G1 X35.176 Y18.77 E5.09584
G1 X34.993 Y18.364 E5.11954
G1 X34.803 Y17.977 E5.14249
G1 X34.554 Y17.509 E5.1707
G1 X34.137 Y16.832 E5.21301
G1 X33.893 Y16.472 E5.23615
G1 X33.639 Y16.126 E5.25899
G1 X33.361 Y15.772 E5.28295
G1 X33.081 Y15.442 E5.30598
G1 X32.784 Y15.112 E5.32961
G1 X32.477 Y14.798 E5.35297
G1 X32.164 Y14.499 E5.37601
G1 X31.835 Y14.207 E5.39942
G1 X31.494 Y13.924 E5.423
G1 X31.152 Y13.659 E5.44603
G1 X30.796 Y13.402 E5.46939
G1 X30.436 Y13.162 E5.49242
G1 X30.051 Y12.926 E5.51645
G1 X29.67 Y12.707 E5.53983
G1 X29.293 Y12.511 E5.56245
G1 X28.887 Y12.316 E5.58641
G1 X28.485 Y12.139 E5.60979
G1 X28.08 Y11.98 E5.63294
G1 X27.668 Y11.832 E5.65624
G1 X27.257 Y11.702 E5.67918
G1 X26.822 Y11.582 E5.70319
G1 X26.207 Y11.432 E5.73688
G1 X25.243 Y11.28 E5.78881
G1 X24.672 Y11.22 E5.81937
G1 X24.224 Y11.192 E5.84326
G1 X23.788 Y11.181 E5.86647
G1 X22.96 Y11.197 E5.91054
G1 X22.035 Y11.289 E5.96
G1 X21.602 Y11.355 E5.98331
G1 X21.181 Y11.432 E6.00609
G1 X20.754 Y11.528 E6.02938
G1 X20.318 Y11.642 E6.05336
G1 X19.897 Y11.766 E6.07672
G1 X19.482 Y11.906 E6.10003
G1 X19.076 Y12.058 E6.1231
G1 X18.677 Y12.226 E6.14613
G1 X18.267 Y12.414 E6.17014
G1 X17.885 Y12.606 E6.19289
G1 X17.489 Y12.821 E6.21687
G1 X17.113 Y13.045 E6.24016
G1 X16.754 Y13.277 E6.26291
G1 X16.383 Y13.533 E6.28689
G1 X16.036 Y13.791 E6.3099
G1 X15.688 Y14.069 E6.33361
G1 X15.357 Y14.356 E6.35692
G1 X15.035 Y14.652 E6.3802
G1 X14.722 Y14.962 E6.40364
G1 X14.426 Y15.278 E6.42668
G1 X14.133 Y15.613 E6.45037
G1 X13.86 Y15.948 E6.47336
G1 X13.593 Y16.302 E6.49696
G1 X13.339 Y16.66 E6.52032
G1 X13.105 Y17.019 E6.54312
G1 X12.871 Y17.404 E6.5671
G1 X12.528 Y18.02 E6.60462
G1 X12.167 Y18.795 E6.65012
G1 X11.941 Y19.388 E6.68389
G1 X11.798 Y19.802 E6.7072
G1 X11.67 Y20.221 E6.73051
G1 X11.559 Y20.633 E6.75322
G1 X11.457 Y21.071 E6.77715
G1 X11.372 Y21.503 E6.80058
G1 X11.268 Y22.221 E6.83919
G1 X11.202 Y22.975 E6.87947
G1 X11.182 Y23.685 E6.91727
G1 X11.202 Y24.385 E6.95453
G1 X11.262 Y25.135 E6.99457
G1 X11.373 Y25.856 E7.03339
G1 X11.457 Y26.288 E7.05681
G1 X11.559 Y26.726 E7.08075
G1 X11.67 Y27.138 E7.10345
G1 X11.798 Y27.557 E7.12677
G1 X11.941 Y27.971 E7.15008
G1 X12.171 Y28.563 E7.18387
G1 X12.53 Y29.34 E7.22942
G1 X12.872 Y29.955 E7.26687
G1 X13.105 Y30.34 E7.29082
G1 X13.339 Y30.699 E7.31362
G1 X13.593 Y31.057 E7.33698
G1 X13.86 Y31.411 E7.36058
G1 X14.133 Y31.746 E7.38358
G1 X14.426 Y32.081 E7.40726
G1 X14.722 Y32.397 E7.4303
G1 X15.035 Y32.707 E7.45375
G1 X15.357 Y33.003 E7.47702
G1 X15.688 Y33.29 E7.50034
G1 X16.036 Y33.568 E7.52404
G1 X16.383 Y33.827 E7.54708
G1 X16.754 Y34.082 E7.57104
G1 X17.113 Y34.314 E7.59379
G1 X17.489 Y34.538 E7.61708
G1 X17.885 Y34.753 E7.64106
G1 X18.267 Y34.945 E7.66381
G1 X18.677 Y35.133 E7.68781
G1 X19.076 Y35.301 E7.71085
G1 X19.482 Y35.453 E7.73392
G1 X19.897 Y35.593 E7.75723
G1 X20.318 Y35.717 E7.78058
G1 X20.754 Y35.831 E7.80457
G1 X21.181 Y35.926 E7.82784
G1 X21.602 Y36.004 E7.85063
G1 X22.035 Y36.07 E7.87394
G1 X22.96 Y36.162 E7.92341
G1 X23.788 Y36.178 E7.96748
G1 X24.224 Y36.167 E7.99069
G1 X24.673 Y36.139 E8.01463
G1 X25.244 Y36.085 E8.04515
G1 X26.207 Y35.925 E8.0971
G1 X26.822 Y35.777 E8.13076
G1 X27.257 Y35.657 E8.15478
G1 X27.674 Y35.525 E8.17805
G1 X28.08 Y35.379 E8.20101
G1 X28.494 Y35.216 E8.22469
M204 S2000
G0 F7500 X28.206 Y34.512
M204 S500
;TYPE:SKIN
G1 F1500 X27.424 Y34.807 E8.26917
G1 X27.046 Y34.925 E8.29024
G1 X26.626 Y35.042 E8.31344
G1 X26.067 Y35.177 E8.34405
G1 X25.133 Y35.332 E8.39443
G1 X24.564 Y35.388 E8.42486
G1 X23.783 Y35.417 E8.46645
G1 X22.996 Y35.402 E8.50834
G1 X22.142 Y35.318 E8.554
G1 X21.338 Y35.181 E8.5974
G1 X20.94 Y35.093 E8.6191
G1 X20.517 Y34.983 E8.64235
G1 X20.125 Y34.867 E8.66411
G1 X19.736 Y34.738 E8.68592
G1 X19.364 Y34.597 E8.70709
G1 X18.988 Y34.439 E8.72879
G1 X18.597 Y34.258 E8.75172
G1 X18.238 Y34.079 E8.77307
G1 X17.868 Y33.877 E8.7955
G1 X17.25 Y33.5 E8.83403
G1 X16.828 Y33.209 E8.86131
G1 X16.498 Y32.963 E8.88321
G1 X16.171 Y32.702 E8.90548
G1 X15.554 Y32.152 E8.94946
G1 X15.267 Y31.867 E8.97099
G1 X14.985 Y31.567 E8.9929
G1 X14.718 Y31.261 E9.01451
G1 X14.455 Y30.938 E9.03667
G1 X14.205 Y30.606 E9.05879
G1 X13.965 Y30.266 E9.08094
G1 X13.749 Y29.935 E9.10197
G1 X13.526 Y29.568 E9.12482
G1 X13.212 Y29.005 E9.15913
G1 X12.867 Y28.258 E9.20292
G1 X12.653 Y27.704 E9.23452
G1 X12.519 Y27.315 E9.25642
G1 X12.4 Y26.923 E9.27822
G1 X12.299 Y26.547 E9.29894
G1 X12.2 Y26.123 E9.32211
G1 X12.122 Y25.719 E9.344
G1 X12.016 Y25.035 E9.38084
G1 X11.962 Y24.351 E9.41735
G1 X11.943 Y23.694 E9.45233
G1 X11.962 Y23.011 E9.48869
G1 X12.022 Y22.313 E9.52597
G1 X12.121 Y21.643 E9.56201
G1 X12.2 Y21.236 E9.58408
G1 X12.298 Y20.814 E9.60713
G1 X12.519 Y20.043 E9.64981
G1 X12.654 Y19.653 E9.67178
G1 X12.864 Y19.102 E9.70316
G1 X13.211 Y18.357 E9.74689
G1 X13.525 Y17.793 E9.78124
G1 X13.752 Y17.42 E9.80448
G1 X13.965 Y17.093 E9.82525
G1 X14.205 Y16.753 E9.8474
G1 X14.455 Y16.421 E9.86951
G1 X14.718 Y16.099 E9.89164
G1 X14.986 Y15.793 E9.91328
G1 X15.267 Y15.492 E9.9352
G1 X15.554 Y15.207 E9.95672
G1 X16.171 Y14.657 E10.00071
G1 X16.496 Y14.398 E10.02282
G1 X16.823 Y14.155 E10.0445
G1 X17.515 Y13.692 E10.08881
G1 X17.867 Y13.482 E10.11062
G1 X18.238 Y13.28 E10.1331
G1 X18.597 Y13.101 E10.15445
G1 X18.988 Y12.92 E10.17738
G1 X19.363 Y12.762 E10.19904
G1 X19.736 Y12.622 E10.22024
G1 X20.126 Y12.492 E10.24211
G1 X20.517 Y12.376 E10.26382
G1 X20.94 Y12.266 E10.28708
G1 X21.338 Y12.177 E10.30878
G1 X22.14 Y12.041 E10.35207
G1 X22.997 Y11.957 E10.39789
G1 X23.784 Y11.942 E10.43978
G1 X24.185 Y11.952 E10.46113
G1 X24.615 Y11.979 E10.48406
G1 X25.136 Y12.033 E10.51193
G1 X26.066 Y12.181 E10.56204
G1 X26.625 Y12.317 E10.59266
G1 X27.041 Y12.433 E10.61564
G1 X27.425 Y12.553 E10.63705
G1 X28.199 Y12.844 E10.68106
G1 X28.565 Y13.005 E10.70234
G1 X28.959 Y13.194 E10.72559
G1 X29.298 Y13.371 E10.74594
G1 X30.033 Y13.807 E10.79142
G1 X30.356 Y14.024 E10.81213
G1 X30.693 Y14.267 E10.83424
G1 X31.023 Y14.522 E10.85643
G1 X31.336 Y14.781 E10.87805
G1 X31.654 Y15.062 E10.90063
G1 X32.229 Y15.634 E10.94379
G1 X32.728 Y16.198 E10.98387
G1 X33.093 Y16.66 E11.0152
G1 X33.498 Y17.246 E11.05311
G1 X33.893 Y17.888 E11.09322
G1 X34.127 Y18.324 E11.11956
G1 X34.304 Y18.683 E11.14086
G1 X34.474 Y19.063 E11.16301
G1 X34.627 Y19.441 E11.18471
G1 X34.769 Y19.827 E11.2066
G1 X35.013 Y20.615 E11.2505
G1 X35.115 Y21.021 E11.27277
G1 X35.201 Y21.419 E11.29444
G1 X35.274 Y21.822 E11.31624
G1 X35.331 Y22.227 E11.338
G1 X35.404 Y23.054 E11.38218
G1 X35.419 Y23.463 E11.40396
G1 X35.419 Y23.872 E11.42573
G1 X35.403 Y24.285 E11.44772
G1 X35.373 Y24.721 E11.47098
G1 X35.335 Y25.107 E11.49162
G1 X35.278 Y25.513 E11.51344
G1 X35.205 Y25.918 E11.53534
G1 X35.118 Y26.323 E11.55738
G1 X35.017 Y26.724 E11.57939
G1 X34.902 Y27.123 E11.60149
G1 X34.776 Y27.51 E11.62315
G1 X34.635 Y27.897 E11.64507
G1 X34.414 Y28.438 E11.67617
G1 X34.13 Y29.028 E11.71101
G1 X33.725 Y29.755 E11.7553
G1 X33.277 Y30.441 E11.7989
G1 X33.097 Y30.696 E11.81551
G1 X32.776 Y31.102 E11.84305
G1 X32.237 Y31.72 E11.88669
G1 X31.954 Y32.007 E11.90814
G1 X31.649 Y32.298 E11.93057
G1 X31.078 Y32.798 E11.97096
G1 X30.708 Y33.084 E11.99585
G1 X30.03 Y33.554 E12.03975
G1 X29.299 Y33.988 E12.08499
G1 X28.959 Y34.165 E12.10539
G1 X28.569 Y34.352 E12.12841
G1 X28.206 Y34.512 E12.14952
M204 S2000
G0 F7500 X28.31 Y34.75
G0 X26.094 Y35.376
G0 X24.629 Y35.58
G0 X22.99 Y35.601
G0 X21.294 Y35.377
G0 X19.67 Y34.925
G0 X18.146 Y34.257
G0 X16.71 Y33.371
G0 X15.422 Y32.301
G0 X14.515 Y31.301
G0 X13.415 Y29.885
G0 X13.809 Y29.648
M204 S500
G1 F1500 X17.701 Y33.54 E12.44243
M204 S2000
G0 F7500 X17.463 Y33.94
G0 X18.712 Y34.598
G0 X18.906 Y34.18
M204 S500
G1 F1500 X13.175 Y28.449 E12.87374
M204 S2000
G0 F7500 X12.757 Y28.64
G0 X12.36 Y27.652
G0 X12.795 Y27.503
M204 S500
G1 F1500 X19.858 Y34.566 E13.40529
M204 S2000
G0 F7500 X20.674 Y34.816
M204 S500
G1 F1500 X12.542 Y26.684 E14.0173
M204 S2000
G0 F7500 X12.369 Y25.945
M204 S500
G1 F1500 X21.414 Y34.991 E14.69806
M204 S2000
G0 F7500 X22.095 Y35.106
M204 S500
G1 F1500 X12.254 Y25.264 E15.43872
M204 S2000
G0 F7500 X12.184 Y24.629
M204 S500
G1 F1500 X22.728 Y35.173 E16.23225
M204 S2000
G0 F7500 X23.327 Y35.206
M204 S500
G1 F1500 X12.152 Y24.031 E17.07327
M204 S2000
G0 F7500 X12.148 Y23.462
M204 S500
G1 F1500 X23.897 Y35.211 E17.95749
M204 S2000
G0 F7500 X24.443 Y35.191
M204 S500
G1 F1500 X12.17 Y22.918 E18.88114
M204 S2000
G0 F7500 X12.215 Y22.397
M204 S500
G1 F1500 X24.964 Y35.146 E19.84062
M204 S2000
G0 F7500 X25.457 Y35.074
M204 S500
G1 F1500 X12.284 Y21.901 E20.83201
M204 S2000
G0 F7500 X12.368 Y21.418
M204 S500
G1 F1500 X25.943 Y34.994 E21.85369
M204 S2000
G0 F7500 X26.403 Y34.888
M204 S500
G1 F1500 X12.47 Y20.955 E22.90228
M204 S2000
